; generated by PrusaSlicer 2.5.0+win64 on 2023-02-09 at 10:36:58 UTC


;
;
; 

; external perimeters extrusion width = 0.45mm
; perimeters extrusion width = 0.45mm
; infill extrusion width = 0.45mm
; solid infill extrusion width = 0.45mm
; top infill extrusion width = 0.40mm
; first layer extrusion width = 0.42mm

M73 P0 R35
M73 Q0 S35
M201 X1000 Y1000 Z200 E5000 ; sets maximum accelerations, mm/sec^2
M203 X200 Y200 Z12 E120 ; sets maximum feedrates, mm / sec
M204 P1250 R1250 T1250 ; sets acceleration (P, T) and retract acceleration (R), mm/sec^2
M205 X8.00 Y8.00 Z0.40 E4.50 ; sets the jerk limits, mm/sec
M205 S0 T0 ; sets the minimum extruding and travel feed rate, mm/sec
M107
;TYPE:Custom
M862.3 P "MK3S" ; printer model check
M862.1 P0.4 ; nozzle diameter check
M115 U3.11.0 ; tell printer latest fw version
G90 ; use absolute coordinates
M83 ; extruder relative mode
M104 S240 ; set extruder temp
M140 S85 ; set bed temp
M190 S85 ; wait for bed temp
M109 S240 ; wait for extruder temp
G28 W ; home all without mesh bed level
G80 ; mesh bed leveling

G1 Z0.2 F720
G1 Y-3 F1000 ; go outside print area
G92 E0
G1 X60 E9 F1000 ; intro line
G1 X100 E12.5 F1000 ; intro line

G92 E0
M221 S95

; Don't change E values below. Excessive value can damage the printer.
M907 E430 ; set extruder motor current
G21 ; set units to millimeters
G90 ; use absolute coordinates
M83 ; use relative distances for extrusion
M900 K0.08 ; Filament gcode LA 1.5
M900 K45 ; Filament gcode LA 1.0
M107
;LAYER_CHANGE
;Z:0.2
;HEIGHT:0.2
;BEFORE_LAYER_CHANGE
G92 E0.0
;0.2


M73 P0 R34
G1 E-1 F2100
G1 Z.2 F720
;AFTER_LAYER_CHANGE
;0.2
G1 Z.4
G1 X116.076 Y92.424 F10800
G1 Z.2 F720
G1 E1 F2100
M204 S800
;TYPE:Skirt/Brim
;WIDTH:0.42
G1 F1200
M73 Q0 S34
G1 X116.848 Y91.812 E.03089
G1 X117.95 Y91.371 E.03724
G1 X124.534 Y89.486 E.21472
G1 X125.222 Y89.375 E.02184
G1 X125.715 Y89.395 E.01549
G1 X126.981 Y89.726 E.04101
G1 X133.301 Y92.032 E.21094
G1 X133.923 Y92.346 E.02183
G1 X134.31 Y92.653 E.0155
G1 X135.14 Y93.664 E.04101
G1 X139.016 Y99.438 E.21804
G1 X139.355 Y100.373 E.0312
G1 X139.425 Y101.646 E.03997
G1 X139.185 Y108.369 E.21094
G1 X139 Y109.299 E.02973
G1 X138.273 Y110.526 E.0447
G1 X134.055 Y115.92 E.21472
G1 X133.564 Y116.414 E.02184
G1 X133.152 Y116.688 E.0155
G1 X132.368 Y117.023 E.02673
G1 X125.466 Y119.014 E.22525
G1 X124.745 Y119.126 E.02288
G1 X123.964 Y119.047 E.02461
G1 X123.019 Y118.774 E.03083
G1 X116.699 Y116.468 E.21094
G1 X116.077 Y116.154 E.02183
G1 X115.69 Y115.847 E.0155
G1 X114.86 Y114.836 E.04101
G1 X110.984 Y109.062 E.21804
G1 X110.668 Y108.236 E.02774
G1 X110.575 Y106.854 E.04343
G1 X110.815 Y100.131 E.21094
G1 X111.007 Y99.182 E.03035
G1 X111.799 Y97.878 E.04784
G1 X116.039 Y92.472 E.21543
M204 S1000
G1 X116.335 Y92.704 F10800
M204 S800
G1 F1200
G1 X117.028 Y92.143 E.02794
G1 X118.07 Y91.729 E.03517
G1 X124.638 Y89.849 E.21421
G1 X125.236 Y89.752 E.019
G1 X125.666 Y89.769 E.01351
G1 X126.852 Y90.08 E.03842
G1 X133.172 Y92.386 E.21094
G1 X133.712 Y92.659 E.01899
G1 X134.051 Y92.927 E.01352
G1 X134.827 Y93.875 E.03842
G1 X138.677 Y99.604 E.21644
G1 X138.984 Y100.44 E.02793
G1 X139.049 Y101.632 E.03743
G1 X138.808 Y108.356 E.21094
G1 X138.647 Y109.166 E.0259
G1 X137.904 Y110.39 E.04489
G1 X133.758 Y115.688 E.21094
G1 X133.331 Y116.118 E.01899
G1 X132.972 Y116.357 E.01352
G1 X132.249 Y116.665 E.02465
G1 X125.362 Y118.651 E.22473
G1 X124.731 Y118.749 E.02004
G1 X124.053 Y118.68 E.02137
G1 X123.148 Y118.42 E.02951
G1 X116.828 Y116.114 E.21094
G1 X116.288 Y115.841 E.01899
G1 X115.949 Y115.573 E.01352
G1 X115.173 Y114.625 E.03842
G1 X111.323 Y108.896 E.21644
G1 X111.035 Y108.153 E.02499
G1 X110.951 Y106.868 E.04037
G1 X111.192 Y100.144 E.21094
G1 X111.36 Y99.315 E.02652
G1 X112.096 Y98.11 E.04427
G1 X116.298 Y92.751 E.21353
M204 S1000
; printing object Gear id:0 copy 0
;WIPE_START
G1 F8640
G1 X117.028 Y92.143 E-.21926
G1 X118.07 Y91.729 E-.25897
G1 X120.034 Y91.166 E-.47177
;WIPE_END
G1 E-.05 F2100
G1 Z.4 F720
G1 X131.948 Y102.299 F10800
G1 Z.2 F720
G1 E1 F2100
M204 S800
;TYPE:Perimeter
;WIDTH:0.419999
G1 F1200
G1 X132.014 Y102.357 E.00273
G1 X132.613 Y102.644 E.02083
G1 X133.399 Y102.875 E.02568
G1 X133.902 Y102.918 E.01584
G1 X134.19 Y102.893 E.00907
G1 X134.903 Y102.783 E.02261
G1 X135.376 Y102.602 E.01587
G1 X135.835 Y102.296 E.01731
G1 X135.534 Y103.208 E.03012
G1 X135.282 Y103.728 E.01809
G1 X134.97 Y104.211 E.01803
G1 X134.607 Y104.645 E.01777
G1 X133.953 Y105.22 E.02729
G1 X133.205 Y105.666 E.02729
G1 X132.672 Y105.881 E.01802
G1 X132.148 Y106.039 E.01715
G1 X131.926 Y106.154 E.00785
G1 X131.768 Y106.374 E.00849
G1 X131.748 Y106.432 E.00193
G1 X131.744 Y106.725 E.0092
G1 X131.982 Y107.229 E.01747
G1 X132.219 Y107.581 E.01332
G1 X132.603 Y108.074 E.01958
G1 X132.985 Y108.405 E.01584
G1 X133.251 Y108.564 E.00972
G1 X133.874 Y108.884 E.02196
G1 X134.363 Y109.015 E.01587
G1 X134.914 Y109.038 E.01731
G1 X134.135 Y109.599 E.03012
G1 X133.626 Y109.871 E.01809
G1 X133.097 Y110.075 E.01777
G1 X132.247 Y110.261 E.02729
G1 X131.385 Y110.289 E.02702
G1 X130.527 Y110.157 E.02721
G1 X129.771 Y109.911 E.02495
G1 X129.484 Y109.862 E.00911
G1 X129.286 Y109.914 E.00644
G1 X129.079 Y110.08 E.00832
G1 X128.968 Y110.335 E.00872
G1 X128.88 Y110.994 E.02083
G1 X128.903 Y111.813 E.02569
G1 X129.058 Y112.42 E.01967
G1 X129.456 Y113.215 E.02784
G1 X129.774 Y113.609 E.01587
G1 X130.207 Y113.951 E.01731
G1 X129.246 Y113.947 E.03012
G1 X128.683 Y113.869 E.01783
G1 X127.909 Y113.638 E.02531
G1 X127.414 Y113.414 E.01703
G1 X126.978 Y113.134 E.01625
G1 X126.531 Y112.81 E.01731
G1 X126.133 Y112.424 E.01737
G1 X125.741 Y111.937 E.01962
G1 X125.426 Y111.502 E.01682
G1 X125.248 Y111.384 E.00669
G1 X125.01 Y111.342 E.00759
G1 X124.73 Y111.428 E.0092
G1 X124.325 Y111.811 E.01747
G1 X124.062 Y112.145 E.01332
G1 X123.682 Y112.735 E.02201
G1 X123.486 Y113.222 E.01645
G1 X123.359 Y113.815 E.01902
G1 X123.335 Y114.326 E.01605
G1 X123.41 Y114.838 E.0162
G1 X123.509 Y115.158 E.0105
G1 X122.735 Y114.591 E.03007
G1 X122.325 Y114.196 E.01783
G1 X121.797 Y113.504 E.0273
G1 X121.405 Y112.728 E.02728
G1 X121.232 Y112.197 E.0175
G1 X121.09 Y111.332 E.02749
G1 X121.09 Y110.536 E.02495
G1 X121.048 Y110.249 E.00911
G1 X120.937 Y110.076 E.00644
G1 X120.716 Y109.931 E.00832
G1 X120.439 Y109.904 E.00872
G1 X119.785 Y110.024 E.02083
G1 X119.014 Y110.299 E.02569
G1 X118.484 Y110.635 E.01967
G1 X117.851 Y111.258 E.02784
G1 X117.575 Y111.682 E.01587
G1 X117.382 Y112.2 E.01731
G1 X117.09 Y111.285 E.03012
G1 X116.99 Y110.725 E.01783
G1 X116.969 Y109.846 E.02756
G1 X117.042 Y109.284 E.01776
G1 X117.183 Y108.735 E.01777
G1 X117.53 Y107.927 E.02757
G1 X117.835 Y107.44 E.01802
G1 X118.166 Y107.005 E.01715
G1 X118.277 Y106.78 E.00785
G1 X118.289 Y106.575 E.00644
G1 X118.195 Y106.327 E.00832
G1 X117.986 Y106.143 E.00872
G1 X117.387 Y105.856 E.02083
G1 X116.601 Y105.625 E.02568
G1 X115.975 Y105.585 E.01967
G1 X115.097 Y105.717 E.02784
G1 X114.624 Y105.898 E.01587
G1 X114.165 Y106.204 E.01731
G1 X114.466 Y105.292 E.03012
G1 X114.714 Y104.78 E.01783
G1 X115.173 Y104.116 E.02531
G1 X115.555 Y103.696 E.01782
G1 X115.963 Y103.348 E.01681
G1 X116.416 Y103.061 E.0168
G1 X116.907 Y102.789 E.01759
G1 X117.46 Y102.579 E.01857
G1 X117.971 Y102.415 E.01682
G1 X118.138 Y102.282 E.00669
G1 X118.252 Y102.068 E.00759
G1 X118.256 Y101.775 E.0092
G1 X118.018 Y101.271 E.01747
G1 X117.781 Y100.919 E.01332
G1 X117.397 Y100.426 E.01958
G1 X117.015 Y100.095 E.01584
G1 X116.749 Y99.936 E.00972
G1 X116.126 Y99.616 E.02196
G1 X115.637 Y99.485 E.01587
G1 X115.086 Y99.462 E.01731
G1 X115.865 Y98.901 E.03012
G1 X116.374 Y98.629 E.01809
G1 X116.903 Y98.425 E.01777
G1 X117.753 Y98.239 E.02729
G1 X118.615 Y98.211 E.02702
G1 X119.473 Y98.343 E.02721
G1 X120.229 Y98.589 E.02495
G1 X120.516 Y98.638 E.00911
G1 X120.714 Y98.586 E.00644
G1 X120.921 Y98.42 E.00832
G1 X121.032 Y98.165 E.00872
G1 X121.12 Y97.506 E.02083
G1 X121.097 Y96.687 E.02569
G1 X120.942 Y96.08 E.01967
G1 X120.544 Y95.285 E.02784
G1 X120.226 Y94.891 E.01587
M73 Q1 S34
G1 X119.793 Y94.549 E.01731
G1 X120.754 Y94.553 E.03012
G1 X121.317 Y94.631 E.01783
G1 X122.091 Y94.862 E.02531
G1 X122.586 Y95.086 E.01703
G1 X123.022 Y95.366 E.01625
G1 X123.469 Y95.69 E.01731
G1 X123.867 Y96.076 E.01737
G1 X124.259 Y96.563 E.01962
G1 X124.574 Y96.998 E.01682
M73 P1 R34
G1 X124.752 Y97.116 E.00669
G1 X124.99 Y97.158 E.00759
G1 X125.27 Y97.072 E.0092
G1 X125.675 Y96.689 E.01747
G1 X125.958 Y96.327 E.01441
G1 X126.288 Y95.838 E.0185
G1 X126.519 Y95.254 E.01967
G1 X126.665 Y94.378 E.02784
G1 X126.639 Y93.873 E.01587
G1 X126.49 Y93.341 E.01731
G1 X127.265 Y93.909 E.03012
G1 X127.675 Y94.304 E.01783
G1 X128.208 Y95.002 E.02756
G1 X128.479 Y95.5 E.01776
G1 X128.69 Y96.035 E.01804
G1 X128.835 Y96.591 E.01801
G1 X128.91 Y97.159 E.01797
G1 X128.91 Y97.964 E.02522
G1 X128.952 Y98.251 E.00911
G1 X129.063 Y98.424 E.00644
G1 X129.284 Y98.569 E.00832
G1 X129.561 Y98.596 E.00872
G1 X130.215 Y98.476 E.02083
G1 X130.986 Y98.201 E.02569
G1 X131.516 Y97.865 E.01967
G1 X132.149 Y97.242 E.02784
G1 X132.425 Y96.818 E.01587
G1 X132.618 Y96.3 E.01731
G1 X132.91 Y97.215 E.03012
G1 X133.01 Y97.775 E.01783
G1 X133.031 Y98.654 E.02756
G1 X132.958 Y99.216 E.01776
G1 X132.817 Y99.765 E.01777
G1 X132.47 Y100.573 E.02757
G1 X132.165 Y101.06 E.01802
G1 X131.834 Y101.495 E.01715
G1 X131.723 Y101.72 E.00785
G1 X131.711 Y101.925 E.00644
G1 X131.805 Y102.173 E.00832
G1 X131.903 Y102.259 E.00411
M204 S1000
G1 X132.186 Y102.022 F10800
M204 S800
;TYPE:External perimeter
G1 F1200
G1 X132.725 Y102.284 E.01879
G1 X133.431 Y102.499 E.02314
G1 X133.934 Y102.542 E.01584
G1 X134.768 Y102.431 E.02639
G1 X135.283 Y102.227 E.01737
G1 X135.694 Y101.934 E.01582
G1 X135.918 Y101.683 E.01055
G1 X136.241 Y101.213 E.01787
G1 X136.383 Y101.103 E.00563
G1 X136.448 Y101.236 E.00465
G1 X136.463 Y101.518 E.00885
G1 X136.092 Y102.752 E.04041
G1 X135.883 Y103.353 E.01995
G1 X135.612 Y103.913 E.01951
G1 X135.274 Y104.435 E.01948
G1 X134.877 Y104.909 E.0194
G1 X134.176 Y105.526 E.02929
G1 X133.373 Y106.004 E.02929
G1 X132.797 Y106.237 E.01947
G1 X132.237 Y106.406 E.01833
G1 X132.117 Y106.515 E.00511
G1 X132.123 Y106.671 E.00489
G1 X132.369 Y107.152 E.01693
G1 X132.822 Y107.759 E.02375
G1 X133.092 Y107.999 E.01133
G1 X133.43 Y108.232 E.01288
G1 X133.972 Y108.52 E.01923
G1 X134.508 Y108.658 E.01737
G1 X135.013 Y108.662 E.01582
G1 X135.342 Y108.591 E.01055
G1 X135.879 Y108.401 E.01787
G1 X136.059 Y108.394 E.00563
G1 X136.034 Y108.54 E.00465
G1 X135.88 Y108.777 E.00885
G1 X134.854 Y109.558 E.04041
G1 X134.332 Y109.921 E.01995
G1 X133.783 Y110.215 E.01951
G1 X133.206 Y110.438 E.0194
G1 X132.293 Y110.637 E.02929
G1 X131.362 Y110.667 E.0292
G1 X130.44 Y110.525 E.02926
G1 X129.584 Y110.247 E.02821
G1 X129.435 Y110.261 E.00471
G1 X129.34 Y110.396 E.00516
G1 X129.257 Y110.989 E.01879
G1 X129.27 Y111.727 E.02314
G1 X129.399 Y112.258 E.01712
G1 X129.749 Y112.978 E.02511
G1 X130.102 Y113.405 E.01737
G1 X130.507 Y113.705 E.01582
G1 X130.815 Y113.841 E.01055
G1 X131.362 Y114.002 E.01787
G1 X131.511 Y114.103 E.00563
G1 X131.405 Y114.206 E.00465
G1 X131.141 Y114.307 E.00885
G1 X129.852 Y114.336 E.04041
G1 X129.216 Y114.323 E.01995
G1 X128.602 Y114.238 E.01943
G1 X127.705 Y113.97 E.02937
G1 X127.148 Y113.706 E.01931
G1 X126.374 Y113.179 E.02937
G1 X125.921 Y112.758 E.0194
G1 X125.52 Y112.28 E.01956
G1 X125.198 Y111.816 E.01769
G1 X125.104 Y111.733 E.00394
G1 X124.958 Y111.733 E.00458
G1 X124.59 Y112.079 E.01581
G1 X124.06 Y112.809 E.0283
G1 X123.853 Y113.306 E.01688
G1 X123.735 Y113.847 E.01735
G1 X123.715 Y114.377 E.01666
G1 X123.816 Y114.927 E.01751
G1 X124.068 Y115.427 E.01757
G1 X124.415 Y115.879 E.01787
G1 X124.476 Y116.048 E.00563
G1 X124.329 Y116.069 E.00464
G1 X124.057 Y115.996 E.00885
G1 X122.997 Y115.262 E.04041
G1 X122.49 Y114.878 E.01995
G1 X122.043 Y114.448 E.01943
G1 X121.476 Y113.706 E.02929
G1 X121.055 Y112.872 E.02928
G1 X120.864 Y112.287 E.01931
G1 X120.713 Y111.363 E.02935
G1 X120.713 Y110.463 E.02821
G1 X120.654 Y110.325 E.00471
G1 X120.496 Y110.277 E.00516
G1 X119.906 Y110.381 E.01879
G1 X119.209 Y110.622 E.02314
G1 X118.744 Y110.908 E.01712
G1 X118.167 Y111.464 E.02511
G1 X117.87 Y111.931 E.01737
G1 X117.71 Y112.41 E.01582
G1 X117.676 Y112.744 E.01055
G1 X117.691 Y113.314 E.01787
G1 X117.641 Y113.487 E.00563
G1 X117.51 Y113.418 E.00465
G1 X117.333 Y113.198 E.00885
G1 X116.907 Y111.982 E.04041
G1 X116.723 Y111.373 E.01995
G1 X116.614 Y110.763 E.01943
G1 X116.591 Y109.826 E.02937
G1 X116.671 Y109.213 E.01939
G1 X116.826 Y108.613 E.0194
G1 X117.195 Y107.752 E.02938
G1 X117.524 Y107.225 E.01947
G1 X117.878 Y106.76 E.01833
G1 X117.913 Y106.61 E.00483
G1 X117.814 Y106.478 E.00516
G1 X117.275 Y106.216 E.01879
G1 X116.569 Y106.001 E.02314
G1 X116.025 Y105.959 E.01712
G1 X115.232 Y106.069 E.02511
G1 X114.717 Y106.273 E.01737
G1 X114.306 Y106.566 E.01582
G1 X114.082 Y106.817 E.01055
G1 X113.759 Y107.287 E.01787
G1 X113.617 Y107.397 E.00563
G1 X113.552 Y107.264 E.00465
G1 X113.537 Y106.982 E.00885
G1 X113.908 Y105.748 E.04041
G1 X114.117 Y105.147 E.01995
G1 X114.387 Y104.589 E.01943
G1 X114.92 Y103.819 E.02937
G1 X115.345 Y103.369 E.01939
G1 X115.822 Y102.975 E.0194
G1 X116.627 Y102.496 E.02938
G1 X117.203 Y102.263 E.01947
G1 X117.763 Y102.094 E.01833
G1 X117.879 Y101.994 E.00483
G1 X117.877 Y101.829 E.00516
G1 X117.631 Y101.348 E.01693
G1 X117.178 Y100.741 E.02375
G1 X116.908 Y100.501 E.01133
G1 X116.57 Y100.268 E.01288
G1 X116.028 Y99.98 E.01923
G1 X115.492 Y99.842 E.01737
G1 X114.987 Y99.838 E.01582
G1 X114.658 Y99.909 E.01055
G1 X114.121 Y100.099 E.01787
G1 X113.941 Y100.106 E.00563
G1 X113.966 Y99.96 E.00465
G1 X114.12 Y99.723 E.00885
G1 X115.146 Y98.942 E.04041
G1 X115.668 Y98.579 E.01995
G1 X116.217 Y98.285 E.01951
G1 X116.794 Y98.062 E.0194
G1 X117.707 Y97.863 E.02929
G1 X118.638 Y97.833 E.0292
G1 X119.56 Y97.975 E.02926
G1 X120.416 Y98.253 E.02821
G1 X120.565 Y98.239 E.00471
G1 X120.66 Y98.104 E.00516
G1 X120.743 Y97.511 E.01879
G1 X120.73 Y96.773 E.02314
G1 X120.601 Y96.242 E.01712
G1 X120.251 Y95.522 E.02511
G1 X119.898 Y95.095 E.01737
G1 X119.493 Y94.795 E.01582
G1 X119.185 Y94.659 E.01055
G1 X118.638 Y94.498 E.01787
G1 X118.489 Y94.397 E.00563
G1 X118.595 Y94.294 E.00465
G1 X118.859 Y94.193 E.00885
G1 X120.148 Y94.164 E.04041
G1 X120.784 Y94.177 E.01995
G1 X121.398 Y94.262 E.01943
G1 X122.295 Y94.53 E.02937
G1 X122.852 Y94.794 E.01931
G1 X123.626 Y95.321 E.02937
G1 X124.079 Y95.742 E.0194
G1 X124.48 Y96.22 E.01956
G1 X124.802 Y96.684 E.01769
G1 X124.896 Y96.767 E.00394
G1 X125.042 Y96.767 E.00458
G1 X125.41 Y96.421 E.01581
G1 X125.65 Y96.109 E.01236
G1 X125.94 Y95.691 E.01595
G1 X126.148 Y95.186 E.01712
G1 X126.288 Y94.398 E.02511
G1 X126.254 Y93.845 E.01736
G1 X126.102 Y93.364 E.01582
G1 X125.932 Y93.073 E.01055
G1 X125.586 Y92.621 E.01787
G1 X125.524 Y92.452 E.00563
G1 X125.671 Y92.431 E.00465
G1 X125.943 Y92.504 E.00885
G1 X127.003 Y93.238 E.04041
G1 X127.51 Y93.622 E.01995
G1 X127.957 Y94.052 E.01943
G1 X128.525 Y94.796 E.02937
G1 X128.821 Y95.34 E.01939
G1 X129.05 Y95.918 E.01949
G1 X129.205 Y96.519 E.01946
G1 X129.287 Y97.134 E.01948
G1 X129.287 Y98.037 E.0283
G1 X129.346 Y98.175 E.00471
G1 X129.504 Y98.223 E.00516
G1 X130.094 Y98.119 E.01879
G1 X130.791 Y97.878 E.02314
G1 X131.256 Y97.592 E.01712
G1 X131.833 Y97.036 E.02511
G1 X132.13 Y96.569 E.01737
G1 X132.29 Y96.09 E.01582
G1 X132.324 Y95.756 E.01055
G1 X132.309 Y95.186 E.01787
G1 X132.359 Y95.013 E.00563
G1 X132.49 Y95.082 E.00465
G1 X132.667 Y95.302 E.00885
G1 X133.093 Y96.518 E.04041
G1 X133.277 Y97.127 E.01995
G1 X133.386 Y97.737 E.01943
G1 X133.409 Y98.674 E.02937
G1 X133.329 Y99.287 E.01939
G1 X133.174 Y99.887 E.0194
G1 X132.805 Y100.748 E.02938
G1 X132.476 Y101.275 E.01947
G1 X132.122 Y101.74 E.01833
G1 X132.087 Y101.89 E.00483
G1 X132.15 Y101.974 E.00328
M204 S1000
G1 X132.096 Y102.411 F10800
;WIPE_START
G1 F8640
G1 X132.725 Y102.284 E-.15081
G1 X133.431 Y102.499 E-.17039
G1 X133.934 Y102.542 E-.11666
G1 X134.768 Y102.431 E-.19432
G1 X135.283 Y102.227 E-.12789
G1 X135.694 Y101.934 E-.11651
G1 X135.906 Y101.697 E-.07341
;WIPE_END
G1 E-.05 F2100
