; generated by PrusaSlicer 2.5.0+win64 on 2023-02-09 at 09:34:51 UTC


;
;
; 

; external perimeters extrusion width = 0.45mm
; perimeters extrusion width = 0.45mm
; infill extrusion width = 0.45mm
; solid infill extrusion width = 0.45mm
; top infill extrusion width = 0.40mm
; first layer extrusion width = 0.42mm

; external perimeters extrusion width = 0.45mm
; perimeters extrusion width = 0.45mm
; infill extrusion width = 0.45mm
; solid infill extrusion width = 0.45mm
; top infill extrusion width = 0.40mm
; first layer extrusion width = 0.42mm

M73 P0 R30
M73 Q0 S31
M201 X1000 Y1000 Z200 E5000 ; sets maximum accelerations, mm/sec^2
M203 X200 Y200 Z12 E120 ; sets maximum feedrates, mm / sec
M204 P1250 R1250 T1250 ; sets acceleration (P, T) and retract acceleration (R), mm/sec^2
M205 X8.00 Y8.00 Z0.40 E4.50 ; sets the jerk limits, mm/sec
M205 S0 T0 ; sets the minimum extruding and travel feed rate, mm/sec
M107
;TYPE:Custom
M862.3 P "MK3S" ; printer model check
M862.1 P0.4 ; nozzle diameter check
M115 U3.11.0 ; tell printer latest fw version
G90 ; use absolute coordinates
M83 ; extruder relative mode
M104 S240 ; set extruder temp
M140 S85 ; set bed temp
M190 S85 ; wait for bed temp
M109 S240 ; wait for extruder temp
G28 W ; home all without mesh bed level
G80 ; mesh bed leveling

G1 Z0.2 F720
G1 Y-3 F1000 ; go outside print area
G92 E0
G1 X60 E9 F1000 ; intro line
G1 X100 E12.5 F1000 ; intro line

G92 E0
M221 S95

; Don't change E values below. Excessive value can damage the printer.
M907 E430 ; set extruder motor current
G21 ; set units to millimeters
G90 ; use absolute coordinates
M83 ; use relative distances for extrusion
M900 K0.08 ; Filament gcode LA 1.5
M900 K45 ; Filament gcode LA 1.0
M107
;LAYER_CHANGE
;Z:0.2
;HEIGHT:0.2
;BEFORE_LAYER_CHANGE
G92 E0.0
;0.2


G1 E-1 F2100
M73 Q0 S30
G1 Z.2 F720
;AFTER_LAYER_CHANGE
;0.2
G1 Z.4
G1 X87.372 Y82.28 F10800
G1 Z.2 F720
G1 E1 F2100
M204 S800
;TYPE:Skirt/Brim
;WIDTH:0.42
G1 F1200
G1 X88.517 Y81.075 E.0521
G1 X89.771 Y80.141 E.04901
G1 X90.311 Y79.855 E.01918
G1 X92.076 Y79.266 E.05833
G1 X93.084 Y79.094 E.03205
G1 X94.298 Y79.051 E.03811
G1 X160.63 Y86.834 E2.09405
G1 X161.322 Y86.994 E.02227
G1 X162.082 Y87.366 E.02653
G1 X162.917 Y88.144 E.03579
G1 X163.707 Y89.559 E.0508
G1 X164.222 Y91.193 E.05373
G1 X164.393 Y92.776 E.04993
G1 X164.387 Y123.918 E.97642
G1 X164.247 Y125.046 E.03566
G1 X163.987 Y125.998 E.03093
G1 X163.532 Y127.041 E.03566
G1 X163.012 Y127.879 E.03093
G1 X162.183 Y128.846 E.03994
G1 X161.2 Y129.656 E.03994
G1 X160.092 Y130.285 E.03994
G1 X158.892 Y130.714 E.03994
G1 X157.637 Y130.93 E.03994
G1 X156.363 Y130.926 E.03994
G1 X155.108 Y130.704 E.03994
G1 X153.911 Y130.269 E.03994
G1 X89.169 Y94.276 E2.32257
G1 X88.136 Y93.419 E.04209
G1 X87.253 Y92.407 E.04209
G1 X86.543 Y91.268 E.04209
G1 X86.024 Y90.03 E.04209
G1 X85.71 Y88.725 E.04209
G1 X85.608 Y87.387 E.04209
G1 X85.721 Y86.049 E.04209
G1 X86.046 Y84.747 E.04209
G1 X86.575 Y83.514 E.04209
G1 X87.34 Y82.33 E.04417
M204 S1000
; printing object LatchSpring id:0 copy 0
;WIPE_START
G1 F8640
G1 X88.517 Y81.075 E-.39732
G1 X89.771 Y80.141 E-.36095
G1 X90.311 Y79.855 E-.14126
G1 X90.519 Y79.785 E-.05047
;WIPE_END
G1 E-.05 F2100
G1 Z.4 F720
G1 X149.765 Y114.612 F10800
G1 Z.2 F720
M73 P1 R30
M73 Q1 S30
G1 E1 F2100
M204 S800
;TYPE:Perimeter
;WIDTH:0.67489
G1 F1200
G1 X149.799 Y114.673 E.00366
;WIDTH:0.63153
G1 X149.834 Y114.733 E.00341
;WIDTH:0.588169
G1 X149.869 Y114.794 E.00316
;WIDTH:0.544808
G1 X149.968 Y115.08 E.01264
;WIDTH:0.503205
G1 X150.068 Y115.366 E.0116
;WIDTH:0.461602
G1 X150.168 Y115.652 E.01055
;WIDTH:0.419999
G1 X150.375 Y116.179 E.01775
G1 X150.777 Y116.904 E.02599
G1 X151.212 Y117.497 E.02308
G1 X151.653 Y117.969 E.02023
G1 X152.371 Y118.56 E.02918
G1 X152.993 Y118.937 E.02281
G1 X153.472 Y119.17 E.01671
;WIDTH:0.465806
G1 X153.672 Y119.26 E.0077
;WIDTH:0.511613
G1 X153.872 Y119.35 E.00854
;WIDTH:0.55742
G1 X154.071 Y119.441 E.00937
;WIDTH:0.603226
G1 X154.271 Y119.531 E.01021
G1 X154.2 Y119.556 E.0035
;WIDTH:0.56672
G1 X154.13 Y119.581 E.00327
;WIDTH:0.530213
G1 X154.059 Y119.607 E.00304
;WIDTH:0.493706
G1 X153.897 Y119.754 E.0082
;WIDTH:0.456853
G1 X153.735 Y119.901 E.00753
;WIDTH:0.419999
G1 X153.66 Y120.133 E.00764
G1 X153.287 Y124.037 E.12297
G1 X153.217 Y124.797 E.02392
G1 X153.217 Y125.437 E.02008
G1 X152.369 Y124.277 E.04507
G1 X151.843 Y123.475 E.03006
G1 X151.372 Y122.647 E.02987
G1 X150.825 Y121.493 E.04004
G1 X150.424 Y120.451 E.03502
G1 X150.145 Y119.543 E.02977
G1 X149.831 Y118.139 E.04512
G1 X149.675 Y116.956 E.0374
G1 X149.611 Y115.467 E.04674
;WIDTH:0.461602
G1 X149.636 Y115.25 E.00762
;WIDTH:0.503205
G1 X149.66 Y115.032 E.00838
;WIDTH:0.544808
G1 X149.684 Y114.814 E.00914
;WIDTH:0.588169
G1 X149.711 Y114.747 E.00329
;WIDTH:0.63153
G1 X149.738 Y114.68 E.00355
;WIDTH:0.67489
G1 X149.743 Y114.668 E.00066
M204 S1000
;WIPE_START
G1 F8640
G1 X149.799 Y114.673 E-.01317
G1 X149.834 Y114.733 E-.0161
G1 X149.869 Y114.794 E-.0161
G1 X149.968 Y115.08 E-.06996
G1 X150.068 Y115.366 E-.06996
G1 X150.168 Y115.652 E-.06996
G1 X150.375 Y116.179 E-.1307
G1 X150.777 Y116.904 E-.19138
G1 X151.212 Y117.497 E-.16994
G1 X151.653 Y117.969 E-.14895
G1 X151.832 Y118.117 E-.05376
;WIPE_END
G1 E-.05 F2100
G1 Z.4 F720
G1 X157.229 Y119.566 F10800
G1 Z.2 F720
G1 E1 F2100
M204 S800
;WIDTH:0.397725
G1 F1200
G1 X157.909 Y119.653 E.02022
;WIDTH:0.383863
G1 X158.361 Y119.784 E.01334
G1 X159.134 Y120.144 E.02418
G1 X158.807 Y120.083 E.00942
G1 X156.745 Y119.887 E.05874
;WIDTH:0.419368
G1 X156.644 Y119.854 E.00332
;WIDTH:0.464043
G1 X156.543 Y119.82 E.00372
;WIDTH:0.508718
G1 X156.442 Y119.787 E.00411
;WIDTH:0.553393
G1 X156.341 Y119.754 E.00451
;WIDTH:0.598067
G1 X156.24 Y119.721 E.0049
G1 X156.341 Y119.688 E.0049
;WIDTH:0.553393
G1 X156.442 Y119.655 E.00451
;WIDTH:0.508718
G1 X156.543 Y119.622 E.00411
;WIDTH:0.464043
G1 X156.644 Y119.589 E.00372
;WIDTH:0.419368
G1 X156.745 Y119.556 E.00332
;WIDTH:0.397725
G1 X157.169 Y119.565 E.01251
M204 S1000
;WIPE_START
G1 F8640
G1 X157.909 Y119.653 E-.17202
G1 X158.361 Y119.784 E-.10866
G1 X159.134 Y120.144 E-.19698
G1 X158.807 Y120.083 E-.07673
G1 X157.102 Y119.921 E-.39561
;WIPE_END
G1 E-.05 F2100
G1 Z.4 F720
G1 X160.788 Y122.118 F10800
G1 Z.2 F720
G1 E1 F2100
M204 S800
;WIDTH:0.370354
G1 F1200
G1 X160.896 Y122.484 E.01038
G1 X161.039 Y123.266 E.02167
;WIDTH:0.400694
G1 X161.018 Y123.952 E.02042
G1 X160.952 Y124.421 E.01407
;WIDTH:0.388942
G1 X160.745 Y125.096 E.02032
G1 X160.459 Y125.679 E.01868
G1 X160.548 Y125.042 E.01849
;WIDTH:0.400694
G1 X160.754 Y122.811 E.06666
;WIDTH:0.370354
G1 X160.785 Y122.178 E.01726
M204 S1000
;WIPE_START
G1 F8640
G1 X160.896 Y122.484 E-.07513
G1 X161.039 Y123.266 E-.18374
G1 X161.018 Y123.952 E-.15846
G1 X160.952 Y124.421 E-.10917
G1 X160.745 Y125.096 E-.16311
G1 X160.459 Y125.679 E-.14992
G1 X160.525 Y125.205 E-.11047
;WIPE_END
G1 E-.05 F2100
G1 Z.4 F720
G1 X154.878 Y127.005 F10800
G1 Z.2 F720
G1 E1 F2100
M204 S800
;WIDTH:0.376692
G1 F1200
G1 X155.23 Y127.072 E.00995
G1 X156.069 Y127.152 E.02337
;WIDTH:0.399982
G1 X156.73 Y127.228 E.01975
G1 X157.844 Y127.318 E.0332
;WIDTH:0.365162
G1 X158.495 Y127.346 E.01745
G1 X158.115 Y127.459 E.01061
G1 X157.39 Y127.597 E.01979
;WIDTH:0.399982
G1 X156.683 Y127.582 E.021
G1 X155.997 Y127.476 E.0206
;WIDTH:0.376692
G1 X155.339 Y127.243 E.01937
G1 X154.931 Y127.033 E.01273
M204 S1000
;WIPE_START
G1 F8640
G1 X155.23 Y127.072 E-.06963
G1 X156.069 Y127.152 E-.19446
G1 X156.73 Y127.228 E-.15358
G1 X157.844 Y127.318 E-.25819
G1 X158.495 Y127.346 E-.15036
G1 X158.115 Y127.459 E-.0914
G1 X157.978 Y127.485 E-.03238
;WIPE_END
G1 E-.05 F2100
G1 Z.4 F720
G1 X154.035 Y120.168 F10800
G1 Z.2 F720
G1 E1 F2100
M204 S800
;TYPE:External perimeter
;WIDTH:0.419999
G1 F1200
G1 X154.06 Y120.091 E.00255
G1 X154.172 Y120.005 E.00442
G1 X158.772 Y120.441 E.1449
G1 X159.742 Y120.629 E.03098
G1 X160.242 Y120.799 E.01656
;WIDTH:0.395052
G1 X160.363 Y120.947 E.00559
;WIDTH:0.419999
G1 X160.434 Y121.449 E.01589
G1 X160.435 Y122.342 E.02802
G1 X160.361 Y123.216 E.02748
G1 X160.157 Y125.333 E.0667
G1 X159.969 Y126.303 E.03098
G1 X159.8 Y126.803 E.01656
;WIDTH:0.39698
G1 X159.651 Y126.923 E.00562
;WIDTH:0.419999
G1 X159.149 Y126.995 E.01589
G1 X158.317 Y126.996 E.02608
G1 X156.765 Y126.863 E.04885
G1 X155.265 Y126.718 E.04726
G1 X154.295 Y126.53 E.03098
G1 X153.796 Y126.357 E.01654
;WIDTH:0.401681
G1 X153.671 Y126.22 E.00552
;WIDTH:0.419999
G1 X153.594 Y125.785 E.01387
G1 X153.594 Y124.797 E.03098
G1 X154.03 Y120.228 E.14389
M204 S1000
G1 X153.976 Y120.113 F10800
;WIPE_START
G1 F8640
G1 X154.06 Y120.091 E-.03241
G1 X154.172 Y120.005 E-.03253
G1 X157.988 Y120.366 E-.88506
;WIPE_END
G1 E-.05 F2100
G1 Z.4 F720
G1 X159.867 Y90.087 F10800
G1 Z.2 F720
G1 E1 F2100
M204 S800
G1 F1200
G1 X159.967 Y89.909 E.00639
G1 X160.184 Y89.82 E.00734
G1 X160.415 Y89.853 E.00734
G1 X160.584 Y90.043 E.00797
G1 X160.878 Y90.576 E.01908
G1 X161.165 Y91.303 E.02453
G1 X161.351 Y92.137 E.02679
G1 X161.4 Y92.7 E.01771
G1 X161.391 Y93.249 E.01721
G1 X161.302 Y93.849 E.01903
G1 X161.156 Y94.441 E.01911
G1 X160.99 Y94.945 E.01665
G1 X160.602 Y95.706 E.02678
G1 X160.279 Y96.172 E.01777
G1 X159.701 Y96.81 E.02698
G1 X158.992 Y97.435 E.02964
G1 X157.999 Y98.367 E.0427
G1 X157.053 Y99.347 E.04271
G1 X155.859 Y100.749 E.05772
G1 X155.313 Y101.439 E.02761
G1 X154.91 Y101.988 E.02135
G1 X154.146 Y103.116 E.04272
G1 X153.783 Y103.696 E.02144
G1 X153.104 Y104.876 E.0427
G1 X152.483 Y106.088 E.04271
G1 X151.924 Y107.327 E.0426
G1 X151.424 Y108.597 E.04281
G1 X150.987 Y109.888 E.04271
G1 X150.615 Y111.198 E.04271
G1 X150.306 Y112.532 E.04293
G1 X150.219 Y113.114 E.01847
G1 X150.203 Y113.825 E.02228
G1 X150.296 Y114.691 E.0273
G1 X150.521 Y115.518 E.02688
G1 X150.706 Y115.998 E.01614
G1 X151.082 Y116.683 E.02449
G1 X151.489 Y117.242 E.02169
G1 X151.894 Y117.679 E.01867
G1 X152.572 Y118.242 E.02762
G1 X153.072 Y118.556 E.01852
G1 X153.603 Y118.816 E.01852
G1 X154.157 Y119.019 E.01852
G1 X154.731 Y119.162 E.01852
G1 X155.32 Y119.245 E.01867
G1 X156.192 Y119.253 E.02735
G1 X156.734 Y119.201 E.01707
G1 X157.24 Y119.198 E.01586
G1 X157.996 Y119.303 E.02391
G1 X158.508 Y119.456 E.01677
G1 X159.197 Y119.768 E.02372
G1 X160.298 Y120.383 E.03953
;WIDTH:0.409065
G1 X160.563 Y120.642 E.01129
G1 X160.773 Y120.954 E.01144
;WIDTH:0.419999
G1 X161.197 Y122.234 E.04228
G1 X161.323 Y122.733 E.01615
G1 X161.391 Y123.232 E.01579
G1 X161.385 Y123.995 E.02391
G1 X161.31 Y124.489 E.01569
G1 X161.087 Y125.219 E.02393
G1 X160.871 Y125.683 E.01604
G1 X160.406 Y126.515 E.02989
G1 X160.105 Y126.982 E.01743
;WIDTH:0.401586
G1 X159.705 Y127.304 E.01531
;WIDTH:0.419999
G1 X158.427 Y127.738 E.04232
G1 X157.927 Y127.871 E.01621
G1 X157.429 Y127.946 E.0158
G1 X156.669 Y127.952 E.02384
G1 X155.922 Y127.826 E.02375
G1 X155.203 Y127.573 E.02388
G1 X154.737 Y127.334 E.01643
G1 X153.799 Y126.807 E.03374
;WIDTH:0.413212
G1 X153.293 Y126.327 E.02147
;WIDTH:0.419999
G1 X152.938 Y125.693 E.02277
G1 X152.058 Y124.491 E.04669
G1 X151.521 Y123.672 E.03073
G1 X151.037 Y122.821 E.03068
G1 X150.478 Y121.642 E.04092
G1 X150.067 Y120.574 E.03588
G1 X149.78 Y119.64 E.03064
G1 X149.46 Y118.205 E.0461
G1 X149.299 Y116.992 E.03836
G1 X149.23 Y115.769 E.0384
G1 X149.245 Y114.791 E.03067
G1 X149.321 Y113.815 E.03071
G1 X149.459 Y112.845 E.0307
G1 X149.694 Y111.704 E.03652
G1 X150.029 Y110.397 E.04233
G1 X150.426 Y109.106 E.04233
G1 X150.883 Y107.836 E.04233
G1 X151.4 Y106.588 E.04233
G1 X151.975 Y105.367 E.04233
G1 X152.607 Y104.174 E.04233
G1 X153.295 Y103.012 E.04234
G1 X153.91 Y102.073 E.03519
G1 X154.428 Y101.334 E.02829
G1 X155.248 Y100.261 E.04235
G1 X156.118 Y99.229 E.04233
G1 X157.036 Y98.239 E.04233
G1 X158 Y97.293 E.04234
G1 X159.215 Y96.205 E.05113
G1 X159.736 Y95.61 E.02481
G1 X160.106 Y95.011 E.02206
G1 X160.438 Y94.198 E.02754
G1 X160.56 Y93.683 E.01659
G1 X160.622 Y93.153 E.01675
G1 X160.601 Y92.365 E.02471
G1 X160.512 Y91.843 E.01659
G1 X160.364 Y91.336 E.01659
G1 X160.158 Y90.848 E.01658
G1 X159.89 Y90.369 E.01721
G1 X159.872 Y90.147 E.00698
M204 S1000
G1 X160.062 Y90.026 F10800
G1 X160.254 Y90.236
M204 S800
;TYPE:Perimeter
;WIDTH:0.433518
G1 F1200
G1 X160.522 Y90.719 E.01794
G1 X160.714 Y91.189 E.01648
;WIDTH:0.426478
G1 X160.876 Y91.738 E.01826
;WIDTH:0.434532
G1 X160.98 Y92.301 E.01864
;WIDTH:0.437356
G1 X161.007 Y93.144 E.02765
G1 X160.936 Y93.729 E.01933
;WIDTH:0.424326
G1 X160.807 Y94.286 E.01816
;WIDTH:0.459324
G1 X160.636 Y94.766 E.01765
G1 X160.414 Y95.241 E.01813
;WIDTH:0.435476
G1 X160.062 Y95.813 E.02194
G1 X159.503 Y96.459 E.02789
;WIDTH:0.434874
G1 X158.743 Y97.143 E.03331
;WIDTH:0.448188
G1 X157.743 Y98.081 E.04621
;WIDTH:0.448056
G1 X156.784 Y99.074 E.04652
;WIDTH:0.447838
G1 X155.874 Y100.113 E.0465
;WIDTH:0.447536
G1 X155.016 Y101.196 E.04645
;WIDTH:0.436806
G1 X154.602 Y101.757 E.02286
;WIDTH:0.446484
G1 X153.831 Y102.894 E.0461
;WIDTH:0.434598
G1 X153.461 Y103.486 E.02273
;WIDTH:0.446408
G1 X152.948 Y104.365 E.03415
;WIDTH:0.446924
G1 X152.324 Y105.542 E.04474
;WIDTH:0.447358
G1 X151.757 Y106.746 E.04478
;WIDTH:0.4477
G1 X151.07 Y108.448 E.06177
;WIDTH:0.447958
G1 X150.627 Y109.756 E.04651
;WIDTH:0.44813
G1 X150.249 Y111.084 E.04653
G1 X149.936 Y112.431 E.04659
;WIDTH:0.455346
G1 X149.83 Y113.035 E.02104
;WIDTH:0.48389
G1 X149.8 Y113.351 E.01161
;WIDTH:0.512434
G1 X149.77 Y113.666 E.01236
;WIDTH:0.552773
G1 X149.769 Y113.901 E.00996
;WIDTH:0.593111
G1 X149.767 Y114.136 E.01075
;WIDTH:0.63345
G1 X149.766 Y114.371 E.01154
;WIDTH:0.673788
G1 X149.765 Y114.606 E.01233
;WIDTH:0.67489
G1 X149.765 Y114.612 E.00034
M204 S1000
;WIPE_START
G1 F8640
G1 X149.765 Y114.606 E-.0015
G1 X149.766 Y114.371 E-.05427
G1 X149.767 Y114.136 E-.05427
G1 X149.769 Y113.901 E-.05427
G1 X149.77 Y113.666 E-.05427
G1 X149.8 Y113.351 E-.07308
G1 X149.83 Y113.035 E-.07308
G1 X149.936 Y112.431 E-.14166
G1 X150.076 Y111.793 E-.1509
G1 X150.249 Y111.084 E-.16838
G1 X150.389 Y110.565 E-.12431
;WIPE_END
G1 E-.05 F2100
G1 Z.4 F720
G1 X154.271 Y119.531 F10800
G1 Z.2 F720
G1 E1 F2100
M204 S800
;WIDTH:0.603226
G1 F1200
G1 X154.753 Y119.598 E.02268
;WIDTH:0.562081
G1 X155.235 Y119.666 E.02101
;WIDTH:0.559178
G1 X155.703 Y119.692 E.02013
;WIDTH:0.59742
G1 X156.172 Y119.719 E.02162
;WIDTH:0.604828
G1 X156.228 Y119.721 E.00265
M204 S1000
;WIPE_START
G1 F8640
G1 X156.172 Y119.719 E-.01311
G1 X155.703 Y119.692 E-.10827
G1 X155.235 Y119.666 E-.10827
G1 X154.753 Y119.598 E-.11239
G1 X154.271 Y119.531 E-.11239
;WIPE_END
G1 E-.54555 F2100
G1 Z.4 F720
G1 X149.732 Y115.974 F10800
G1 Z.2 F720
G1 E1 F2100
M204 S800
;TYPE:Solid infill
;WIDTH:0.431869
G1 F1200
G1 X150.204 Y116.445 E.02157
G1 X150.493 Y116.984 E.01977
G1 X150.985 Y117.668 E.02728
G1 X151.395 Y118.113 E.01955
G1 X152.134 Y118.737 E.03128
G1 X152.722 Y119.117 E.02265
G1 X153.026 Y119.268 E.01098
G1 X153.501 Y119.742 E.02171
G1 X153.447 Y119.842 E.00366
G1 X153.373 Y120.164 E.0107
G1 X149.945 Y116.737 E.15677
G1 X150.013 Y117.354 E.02008
G1 X153.326 Y120.667 E.15154
G1 X153.279 Y121.17 E.01634
G1 X150.097 Y117.988 E.14554
G1 X150.243 Y118.685 E.02301
G1 X153.232 Y121.673 E.1367
G1 X153.185 Y122.176 E.01634
G1 X150.401 Y119.393 E.12732
G1 X150.635 Y120.177 E.02648
G1 X153.138 Y122.68 E.11445
G1 X153.091 Y123.183 E.01634
G1 X150.957 Y121.048 E.09761
G1 X151.085 Y121.382 E.01155
G1 X151.396 Y122.038 E.0235
G1 X153.044 Y123.686 E.07535
G1 X152.997 Y124.189 E.01634
G1 X151.565 Y122.756 E.0655
M204 S1000
; stop printing object LatchSpring id:0 copy 0
;LAYER_CHANGE
;Z:0.4
;HEIGHT:0.2
;BEFORE_LAYER_CHANGE
G92 E0.0
;0.4


;WIPE_START
G1 F8640
G1 X152.997 Y124.189 E-.46765
G1 X153.044 Y123.686 E-.11666
G1 X151.924 Y122.566 E-.36569
;WIPE_END
G1 E-.05 F2100
G1 Z.4 F720
;AFTER_LAYER_CHANGE
;0.4
M104 S250 ; set temperature
M140 S90 ; set bed temperature
G1 Z.6
G1 X149.122 Y127.606 F10800
G1 Z.4 F720
G1 E1 F2100
;TYPE:Skirt/Brim
;WIDTH:0.42
G1 F3000
G1 X89.169 Y94.276 E2.15075
G1 X88.136 Y93.419 E.04209
G1 X87.253 Y92.407 E.04209
G1 X86.543 Y91.268 E.04209
G1 X86.024 Y90.03 E.04209
G1 X85.71 Y88.725 E.04209
G1 X85.608 Y87.387 E.04209
G1 X85.721 Y86.049 E.04209
