; generated by PrusaSlicer 2.5.0+win64 on 2023-02-09 at 10:32:59 UTC


;
;
; 

; external perimeters extrusion width = 0.45mm
; perimeters extrusion width = 0.45mm
; infill extrusion width = 0.45mm
; solid infill extrusion width = 0.45mm
; top infill extrusion width = 0.40mm
; support material extrusion width = 0.35mm
; first layer extrusion width = 0.42mm

M73 P0 R86
M73 Q0 S87
M201 X1000 Y1000 Z200 E5000 ; sets maximum accelerations, mm/sec^2
M203 X200 Y200 Z12 E120 ; sets maximum feedrates, mm / sec
M204 P1250 R1250 T1250 ; sets acceleration (P, T) and retract acceleration (R), mm/sec^2
M205 X8.00 Y8.00 Z0.40 E4.50 ; sets the jerk limits, mm/sec
M205 S0 T0 ; sets the minimum extruding and travel feed rate, mm/sec
M107
;TYPE:Custom
M862.3 P "MK3S" ; printer model check
M862.1 P0.4 ; nozzle diameter check
M115 U3.11.0 ; tell printer latest fw version
G90 ; use absolute coordinates
M83 ; extruder relative mode
M104 S240 ; set extruder temp
M140 S85 ; set bed temp
M190 S85 ; wait for bed temp
M109 S240 ; wait for extruder temp
G28 W ; home all without mesh bed level
G80 ; mesh bed leveling

G1 Z0.2 F720
G1 Y-3 F1000 ; go outside print area
G92 E0
G1 X60 E9 F1000 ; intro line
G1 X100 E12.5 F1000 ; intro line

G92 E0
M221 S95

; Don't change E values below. Excessive value can damage the printer.
M907 E430 ; set extruder motor current
G21 ; set units to millimeters
G90 ; use absolute coordinates
M83 ; use relative distances for extrusion
M900 K0.08 ; Filament gcode LA 1.5
M900 K45 ; Filament gcode LA 1.0
M107
;LAYER_CHANGE
;Z:0.2
;HEIGHT:0.2
;BEFORE_LAYER_CHANGE
G92 E0.0
;0.2


G1 E-1 F2100
G1 Z.2 F720
;AFTER_LAYER_CHANGE
;0.2
G1 Z.4
G1 X93.022 Y88.158 F10800
G1 Z.2 F720
G1 E1 F2100
M204 S800
;TYPE:Skirt/Brim
;WIDTH:0.42
G1 F1200
G1 X94.492 Y87.144 E.05596
G1 X128.462 Y79.587 E1.09114
G1 X128.978 Y79.53 E.01628
G1 X139.479 Y79.53 E.32925
G1 X140.52 Y79.77 E.0335
G1 X156.033 Y87.328 E.54106
G1 X157.037 Y88.252 E.04278
G1 X157.369 Y89.465 E.03942
G1 X157.369 Y117.15 E.86804
G1 X156.978 Y118.457 E.04278
G1 X155.932 Y119.333 E.04278
G1 X154.993 Y119.527 E.03006
G1 X95.007 Y119.527 E1.8808
G1 X93.7 Y119.135 E.04278
G1 X92.824 Y118.089 E.04278
G1 X92.631 Y117.15 E.03006
G1 X92.631 Y89.465 E.86804
G1 X93.005 Y88.215 E.0409
M204 S1000
; printing object Base id:0 copy 0
;WIPE_START
M73 Q0 S86
G1 F8640
G1 X94.492 Y87.144 E-.42301
G1 X96.72 Y86.649 E-.52699
;WIPE_END
G1 E-.05 F2100
G1 Z.4 F720
G1 X95.833 Y90.102 F10800
G1 Z.2 F720
G1 E1 F2100
M204 S800
;TYPE:Support material interface
;WIDTH:0.35
G1 F1200
G1 X96.096 Y89.837 E.00954
G1 X96.096 Y89.465 E.00951
G1 X96.604 Y89.465 E.01295
G1 X96.604 Y89.582 E.003
G1 X96.93 Y89.534 E.00843
G1 X97.111 Y89.53 E.00461
G1 X97.111 Y89.465 E.00166
G1 X97.618 Y89.465 E.01295
G1 X97.618 Y89.53 E.00166
G1 X98.125 Y89.53 E.01295
G1 X98.125 Y89.465 E.00166
G1 X98.632 Y89.465 E.01295
G1 X98.632 Y89.53 E.00166
G1 X99.139 Y89.53 E.01295
G1 X99.139 Y89.465 E.00166
G1 X99.646 Y89.465 E.01295
G1 X99.646 Y89.53 E.00166
G1 X100.153 Y89.53 E.01295
G1 X100.153 Y89.465 E.00166
G1 X100.66 Y89.465 E.01295
G1 X100.66 Y89.53 E.00166
G1 X101.167 Y89.53 E.01295
G1 X101.167 Y89.465 E.00166
G1 X101.674 Y89.465 E.01295
G1 X101.674 Y89.53 E.00166
G1 X102.181 Y89.53 E.01295
G1 X102.181 Y89.465 E.00166
G1 X102.689 Y89.465 E.01295
G1 X102.689 Y89.53 E.00166
G1 X103.196 Y89.53 E.01295
G1 X103.196 Y89.465 E.00166
G1 X103.703 Y89.465 E.01295
G1 X103.703 Y89.53 E.00166
G1 X104.21 Y89.53 E.01295
G1 X104.21 Y89.465 E.00166
G1 X104.717 Y89.465 E.01295
G1 X104.717 Y89.53 E.00166
M73 P0 R85
G1 X105.224 Y89.53 E.01295
G1 X105.224 Y89.465 E.00166
G1 X105.731 Y89.465 E.01295
G1 X105.731 Y89.53 E.00166
G1 X106.238 Y89.53 E.01295
G1 X106.238 Y89.465 E.00166
G1 X106.745 Y89.465 E.01295
G1 X106.745 Y89.53 E.00166
G1 X107.252 Y89.53 E.01295
G1 X107.252 Y89.465 E.00166
G1 X107.759 Y89.465 E.01295
G1 X107.759 Y89.53 E.00166
G1 X108.266 Y89.53 E.01295
G1 X108.266 Y89.465 E.00166
G1 X108.773 Y89.465 E.01295
G1 X108.773 Y89.53 E.00166
G1 X109.281 Y89.53 E.01295
G1 X109.281 Y89.465 E.00166
G1 X109.788 Y89.465 E.01295
G1 X109.788 Y89.53 E.00166
G1 X110.295 Y89.53 E.01295
G1 X110.295 Y89.465 E.00166
G1 X110.802 Y89.465 E.01295
G1 X110.802 Y89.53 E.00166
G1 X111.309 Y89.53 E.01295
G1 X111.309 Y89.465 E.00166
G1 X111.816 Y89.465 E.01295
G1 X111.816 Y89.53 E.00166
G1 X112.323 Y89.53 E.01295
G1 X112.323 Y89.465 E.00166
G1 X112.83 Y89.465 E.01295
G1 X112.83 Y89.53 E.00166
G1 X113.337 Y89.53 E.01295
G1 X113.337 Y89.465 E.00166
G1 X113.844 Y89.465 E.01295
G1 X113.844 Y89.53 E.00166
G1 X114.351 Y89.53 E.01295
G1 X114.351 Y89.465 E.00166
G1 X114.858 Y89.465 E.01295
G1 X114.858 Y89.53 E.00166
G1 X115.366 Y89.53 E.01295
G1 X115.366 Y89.465 E.00166
G1 X115.873 Y89.465 E.01295
G1 X115.873 Y89.53 E.00166
G1 X116.38 Y89.53 E.01295
G1 X116.38 Y89.465 E.00166
G1 X116.887 Y89.465 E.01295
G1 X116.887 Y89.53 E.00166
G1 X117.394 Y89.53 E.01295
G1 X117.394 Y89.465 E.00166
G1 X117.901 Y89.465 E.01295
G1 X117.901 Y89.53 E.00166
G1 X118.408 Y89.53 E.01295
G1 X118.408 Y89.465 E.00166
G1 X118.915 Y89.465 E.01295
G1 X118.915 Y89.53 E.00166
G1 X119.422 Y89.53 E.01295
G1 X119.422 Y89.465 E.00166
G1 X119.929 Y89.465 E.01295
G1 X119.929 Y89.53 E.00166
G1 X120.436 Y89.53 E.01295
G1 X120.436 Y89.465 E.00166
G1 X120.943 Y89.465 E.01295
G1 X120.943 Y89.53 E.00166
G1 X121.45 Y89.53 E.01295
G1 X121.45 Y89.465 E.00166
G1 X121.958 Y89.465 E.01295
G1 X121.958 Y89.53 E.00166
G1 X122.465 Y89.53 E.01295
G1 X122.465 Y89.465 E.00166
G1 X122.972 Y89.465 E.01295
G1 X122.972 Y89.53 E.00166
G1 X123.479 Y89.53 E.01295
G1 X123.479 Y89.465 E.00166
G1 X123.986 Y89.465 E.01295
G1 X123.986 Y89.53 E.00166
G1 X124.493 Y89.53 E.01295
G1 X124.493 Y89.465 E.00166
G1 X125 Y89.465 E.01295
G1 X125 Y89.53 E.00166
G1 X125.507 Y89.53 E.01295
G1 X125.507 Y89.465 E.00166
G1 X126.014 Y89.465 E.01295
G1 X126.014 Y89.53 E.00166
G1 X126.521 Y89.53 E.01295
G1 X126.521 Y89.465 E.00166
G1 X127.028 Y89.465 E.01295
G1 X127.028 Y89.53 E.00166
G1 X127.535 Y89.53 E.01295
G1 X127.535 Y89.465 E.00166
G1 X128.042 Y89.465 E.01295
G1 X128.042 Y89.53 E.00166
G1 X128.55 Y89.53 E.01295
G1 X128.55 Y89.465 E.00166
G1 X129.057 Y89.465 E.01295
G1 X129.057 Y89.53 E.00166
G1 X129.564 Y89.53 E.01295
G1 X129.564 Y89.465 E.00166
G1 X130.071 Y89.465 E.01295
G1 X130.071 Y89.53 E.00166
G1 X130.578 Y89.53 E.01295
G1 X130.578 Y89.465 E.00166
G1 X131.085 Y89.465 E.01295
G1 X131.085 Y89.53 E.00166
G1 X131.592 Y89.53 E.01295
G1 X131.592 Y89.465 E.00166
G1 X132.099 Y89.465 E.01295
G1 X132.099 Y89.53 E.00166
G1 X132.606 Y89.53 E.01295
G1 X132.606 Y89.465 E.00166
G1 X133.113 Y89.465 E.01295
G1 X133.113 Y89.53 E.00166
G1 X133.62 Y89.53 E.01295
G1 X133.62 Y89.465 E.00166
G1 X134.127 Y89.465 E.01295
G1 X134.127 Y89.53 E.00166
G1 X134.635 Y89.53 E.01295
G1 X134.635 Y89.465 E.00166
G1 X135.142 Y89.465 E.01295
G1 X135.142 Y89.53 E.00166
G1 X135.649 Y89.53 E.01295
G1 X135.649 Y89.465 E.00166
G1 X136.156 Y89.465 E.01295
G1 X136.156 Y89.53 E.00166
G1 X136.663 Y89.53 E.01295
G1 X136.663 Y89.465 E.00166
G1 X137.17 Y89.465 E.01295
G1 X137.17 Y89.53 E.00166
G1 X137.677 Y89.53 E.01295
G1 X137.677 Y89.465 E.00166
G1 X138.184 Y89.465 E.01295
G1 X138.184 Y89.53 E.00166
G1 X138.691 Y89.53 E.01295
G1 X138.691 Y89.465 E.00166
G1 X139.198 Y89.465 E.01295
G1 X139.198 Y89.53 E.00166
G1 X139.705 Y89.53 E.01295
G1 X139.705 Y89.465 E.00166
G1 X140.212 Y89.465 E.01295
G1 X140.212 Y89.53 E.00166
G1 X140.719 Y89.53 E.01295
G1 X140.719 Y89.465 E.00166
G1 X141.227 Y89.465 E.01295
G1 X141.227 Y89.53 E.00166
G1 X141.734 Y89.53 E.01295
G1 X141.734 Y89.465 E.00166
G1 X142.241 Y89.465 E.01295
G1 X142.241 Y89.53 E.00166
G1 X142.748 Y89.53 E.01295
G1 X142.748 Y89.465 E.00166
G1 X143.255 Y89.465 E.01295
G1 X143.255 Y89.53 E.00166
G1 X143.762 Y89.53 E.01295
G1 X143.762 Y89.465 E.00166
G1 X144.269 Y89.465 E.01295
G1 X144.269 Y89.53 E.00166
G1 X144.776 Y89.53 E.01295
G1 X144.776 Y89.465 E.00166
G1 X145.283 Y89.465 E.01295
G1 X145.283 Y89.53 E.00166
G1 X145.79 Y89.53 E.01295
G1 X145.79 Y89.465 E.00166
G1 X146.297 Y89.465 E.01295
G1 X146.297 Y89.53 E.00166
G1 X146.804 Y89.53 E.01295
G1 X146.804 Y89.465 E.00166
G1 X147.311 Y89.465 E.01295
G1 X147.311 Y89.53 E.00166
G1 X147.819 Y89.53 E.01295
G1 X147.819 Y89.465 E.00166
G1 X148.326 Y89.465 E.01295
G1 X148.326 Y89.53 E.00166
G1 X148.833 Y89.53 E.01295
G1 X148.833 Y89.465 E.00166
G1 X149.34 Y89.465 E.01295
G1 X149.34 Y89.53 E.00166
G1 X149.847 Y89.53 E.01295
G1 X149.847 Y89.465 E.00166
G1 X150.354 Y89.465 E.01295
G1 X150.354 Y89.53 E.00166
G1 X150.861 Y89.53 E.01295
G1 X150.861 Y89.465 E.00166
G1 X151.368 Y89.465 E.01295
G1 X151.368 Y89.53 E.00166
G1 X151.875 Y89.53 E.01295
G1 X151.875 Y89.465 E.00166
G1 X152.382 Y89.465 E.01295
G1 X152.382 Y89.53 E.00166
G1 X152.889 Y89.53 E.01295
G1 X152.889 Y89.465 E.00166
G1 X153.396 Y89.465 E.01295
G1 X153.396 Y89.582 E.003
G1 X153.653 Y89.682 E.00703
G1 X153.904 Y89.841 E.00757
G1 X153.904 Y89.465 E.0096
G1 X154.411 Y89.465 E.01295
G1 X154.411 Y90.582 E.02852
G1 X154.474 Y90.954 E.00964
G1 X154.474 Y115.046 E.61516
G1 X154.411 Y115.418 E.00965
G1 X154.411 Y117.15 E.0442
G1 X154.918 Y117.15 E.01295
G1 X154.918 Y89.465 E.7069
M204 S1000
;WIPE_START
G1 F8640
G1 X154.918 Y93.579 E-.95
;WIPE_END
G1 E-.05 F2100
G1 Z.4 F720
G1 X151.246 Y93.836 F10800
G1 Z.2 F720
G1 E1 F2100
M204 S800
G1 F1200
G1 X151.368 Y94.114 E.00775
G1 X151.368 Y111.886 E.45378
G1 X151.161 Y112.314 E.01215
G1 X150.861 Y112.712 E.01273
G1 X150.861 Y93.288 E.49598
G1 X150.596 Y93.038 E.00929
G1 X150.354 Y92.865 E.0076
G1 X150.354 Y94.079 E.031
G1 X150.378 Y94.079 E.00061
G1 X150.378 Y112.535 E.47127
G1 X150.354 Y112.535 E.00061
G1 X150.354 Y113.135 E.01532
G1 X150.164 Y113.246 E.00562
G1 X149.847 Y113.383 E.00882
G1 X149.847 Y112.535 E.02165
G1 X149.34 Y112.535 E.01295
G1 X149.34 Y113.506 E.02479
G1 X148.993 Y113.53 E.00888
G1 X148.833 Y113.53 E.00409
G1 X148.833 Y112.535 E.02539
G1 X148.326 Y112.535 E.01295
G1 X148.326 Y113.53 E.02539
G1 X147.819 Y113.53 E.01295
G1 X147.819 Y112.535 E.02539
G1 X147.311 Y112.535 E.01295
G1 X147.311 Y113.53 E.02539
G1 X146.804 Y113.53 E.01295
G1 X146.804 Y112.535 E.02539
G1 X146.297 Y112.535 E.01295
G1 X146.297 Y113.53 E.02539
G1 X145.79 Y113.53 E.01295
G1 X145.79 Y112.535 E.02539
G1 X145.283 Y112.535 E.01295
G1 X145.283 Y113.53 E.02539
G1 X144.776 Y113.53 E.01295
G1 X144.776 Y112.535 E.02539
G1 X144.269 Y112.535 E.01295
G1 X144.269 Y113.53 E.02539
G1 X143.762 Y113.53 E.01295
G1 X143.762 Y112.535 E.02539
G1 X143.255 Y112.535 E.01295
G1 X143.255 Y113.53 E.02539
G1 X142.748 Y113.53 E.01295
G1 X142.748 Y112.535 E.02539
G1 X142.241 Y112.535 E.01295
G1 X142.241 Y113.53 E.02539
G1 X141.734 Y113.53 E.01295
G1 X141.734 Y112.535 E.02539
G1 X141.227 Y112.535 E.01295
G1 X141.227 Y113.53 E.02539
G1 X140.719 Y113.53 E.01295
G1 X140.719 Y112.535 E.02539
G1 X140.212 Y112.535 E.01295
G1 X140.212 Y113.53 E.02539
G1 X139.705 Y113.53 E.01295
G1 X139.705 Y112.535 E.02539
G1 X139.198 Y112.535 E.01295
G1 X139.198 Y113.53 E.02539
G1 X138.691 Y113.53 E.01295
G1 X138.691 Y112.535 E.02539
G1 X138.184 Y112.535 E.01295
G1 X138.184 Y113.53 E.02539
G1 X137.677 Y113.53 E.01295
G1 X137.677 Y112.535 E.02539
G1 X137.17 Y112.535 E.01295
G1 X137.17 Y113.53 E.02539
G1 X136.663 Y113.53 E.01295
G1 X136.663 Y112.535 E.02539
G1 X136.156 Y112.535 E.01295
G1 X136.156 Y113.53 E.02539
G1 X135.649 Y113.53 E.01295
G1 X135.649 Y112.535 E.02539
G1 X135.142 Y112.535 E.01295
G1 X135.142 Y113.53 E.02539
G1 X134.635 Y113.53 E.01295
G1 X134.635 Y112.535 E.02539
G1 X134.127 Y112.535 E.01295
G1 X134.127 Y113.53 E.02539
G1 X133.62 Y113.53 E.01295
G1 X133.62 Y112.535 E.02539
G1 X133.113 Y112.535 E.01295
G1 X133.113 Y113.53 E.02539
G1 X132.606 Y113.53 E.01295
G1 X132.606 Y112.535 E.02539
G1 X132.099 Y112.535 E.01295
G1 X132.099 Y113.53 E.02539
G1 X131.592 Y113.53 E.01295
G1 X131.592 Y112.535 E.02539
G1 X131.085 Y112.535 E.01295
G1 X131.085 Y113.53 E.02539
G1 X130.578 Y113.53 E.01295
G1 X130.578 Y112.535 E.02539
G1 X130.071 Y112.535 E.01295
G1 X130.071 Y113.53 E.02539
G1 X129.564 Y113.53 E.01295
G1 X129.564 Y112.535 E.02539
G1 X129.057 Y112.535 E.01295
G1 X129.057 Y113.53 E.02539
G1 X128.55 Y113.53 E.01295
G1 X128.55 Y112.535 E.02539
G1 X128.042 Y112.535 E.01295
G1 X128.042 Y113.53 E.02539
G1 X127.535 Y113.53 E.01295
G1 X127.535 Y112.535 E.02539
G1 X127.028 Y112.535 E.01295
G1 X127.028 Y113.53 E.02539
G1 X126.521 Y113.53 E.01295
G1 X126.521 Y112.535 E.02539
G1 X126.014 Y112.535 E.01295
G1 X126.014 Y113.53 E.02539
G1 X125.507 Y113.53 E.01295
G1 X125.507 Y112.535 E.02539
G1 X125 Y112.535 E.01295
G1 X125 Y113.53 E.02539
G1 X124.493 Y113.53 E.01295
G1 X124.493 Y112.535 E.02539
G1 X123.986 Y112.535 E.01295
G1 X123.986 Y113.53 E.02539
G1 X123.479 Y113.53 E.01295
G1 X123.479 Y112.535 E.02539
G1 X122.972 Y112.535 E.01295
G1 X122.972 Y113.53 E.02539
G1 X122.465 Y113.53 E.01295
G1 X122.465 Y112.535 E.02539
G1 X121.958 Y112.535 E.01295
G1 X121.958 Y113.53 E.02539
G1 X121.45 Y113.53 E.01295
G1 X121.45 Y112.535 E.02539
G1 X120.943 Y112.535 E.01295
G1 X120.943 Y113.53 E.02539
G1 X120.436 Y113.53 E.01295
G1 X120.436 Y112.535 E.02539
G1 X119.929 Y112.535 E.01295
G1 X119.929 Y113.53 E.02539
G1 X119.422 Y113.53 E.01295
G1 X119.422 Y112.535 E.02539
G1 X118.915 Y112.535 E.01295
G1 X118.915 Y113.53 E.02539
G1 X118.408 Y113.53 E.01295
G1 X118.408 Y112.535 E.02539
G1 X117.901 Y112.535 E.01295
G1 X117.901 Y113.53 E.02539
G1 X117.394 Y113.53 E.01295
G1 X117.394 Y112.535 E.02539
G1 X116.887 Y112.535 E.01295
G1 X116.887 Y113.53 E.02539
G1 X116.38 Y113.53 E.01295
G1 X116.38 Y112.535 E.02539
G1 X115.873 Y112.535 E.01295
G1 X115.873 Y113.53 E.02539
G1 X115.365 Y113.53 E.01295
G1 X115.365 Y112.535 E.02539
G1 X114.858 Y112.535 E.01295
G1 X114.858 Y113.53 E.02539
G1 X114.351 Y113.53 E.01295
G1 X114.351 Y112.535 E.02539
G1 X113.844 Y112.535 E.01295
G1 X113.844 Y113.53 E.02539
G1 X113.337 Y113.53 E.01295
G1 X113.337 Y112.535 E.02539
G1 X112.83 Y112.535 E.01295
G1 X112.83 Y113.53 E.02539
G1 X112.323 Y113.53 E.01295
G1 X112.323 Y112.535 E.02539
G1 X111.816 Y112.535 E.01295
G1 X111.816 Y113.53 E.02539
G1 X111.309 Y113.53 E.01295
G1 X111.309 Y112.535 E.02539
G1 X110.802 Y112.535 E.01295
G1 X110.802 Y113.53 E.02539
G1 X110.295 Y113.53 E.01295
G1 X110.295 Y112.535 E.02539
G1 X109.788 Y112.535 E.01295
G1 X109.788 Y113.53 E.02539
G1 X109.281 Y113.53 E.01295
G1 X109.281 Y112.535 E.02539
G1 X108.773 Y112.535 E.01295
G1 X108.773 Y113.53 E.02539
G1 X108.266 Y113.53 E.01295
G1 X108.266 Y112.535 E.02539
G1 X107.759 Y112.535 E.01295
G1 X107.759 Y113.53 E.02539
G1 X107.252 Y113.53 E.01295
G1 X107.252 Y112.535 E.02539
G1 X106.745 Y112.535 E.01295
G1 X106.745 Y113.53 E.02539
G1 X106.238 Y113.53 E.01295
G1 X106.238 Y112.535 E.02539
G1 X105.731 Y112.535 E.01295
G1 X105.731 Y113.53 E.02539
G1 X105.224 Y113.53 E.01295
G1 X105.224 Y112.535 E.02539
G1 X104.717 Y112.535 E.01295
G1 X104.717 Y113.53 E.02539
G1 X104.21 Y113.53 E.01295
G1 X104.21 Y112.535 E.02539
G1 X103.703 Y112.535 E.01295
G1 X103.703 Y113.53 E.02539
G1 X103.196 Y113.53 E.01295
G1 X103.196 Y112.535 E.02539
G1 X102.689 Y112.535 E.01295
G1 X102.689 Y113.53 E.02539
G1 X102.181 Y113.53 E.01295
G1 X102.181 Y112.535 E.02539
G1 X101.674 Y112.535 E.01295
G1 X101.674 Y113.53 E.02539
G1 X101.167 Y113.53 E.01295
G1 X101.167 Y112.535 E.02539
G1 X100.66 Y112.535 E.01295
G1 X100.66 Y113.506 E.02479
G1 X100.153 Y113.383 E.01332
G1 X100.153 Y112.535 E.02166
G1 X99.8 Y112.535 E.00903
M204 S1000
;WIPE_START
G1 F8640
G1 X100.153 Y112.535 E-.08163
G1 X100.153 Y113.383 E-.19583
G1 X100.66 Y113.506 E-.12048
G1 X100.66 Y112.535 E-.22421
G1 X101.167 Y112.535 E-.11709
G1 X101.167 Y113.448 E-.21077
;WIPE_END
G1 E-.05 F2100
G1 Z.4 F720
G1 X98.754 Y112.164 F10800
G1 Z.2 F720
G1 E1 F2100
M204 S800
G1 F1200
G1 X98.632 Y111.886 E.00775
G1 X98.632 Y94.114 E.45378
G1 X98.839 Y93.686 E.01215
G1 X99.139 Y93.288 E.01273
G1 X99.139 Y112.712 E.49598
G1 X99.404 Y112.962 E.00929
G1 X99.646 Y113.135 E.0076
G1 X99.646 Y112.535 E.01532
G1 X99.622 Y112.535 E.00061
G1 X99.622 Y94.079 E.47127
G1 X99.646 Y94.079 E.00061
G1 X99.646 Y92.865 E.031
G1 X100.01 Y92.673 E.01051
M204 S1000
