; generated by PrusaSlicer 2.5.0+win64 on 2023-02-09 at 10:35:32 UTC


;
;
; 

; external perimeters extrusion width = 0.45mm
; perimeters extrusion width = 0.45mm
; infill extrusion width = 0.45mm
; solid infill extrusion width = 0.45mm
; top infill extrusion width = 0.40mm
; support material extrusion width = 0.35mm
; first layer extrusion width = 0.42mm

; external perimeters extrusion width = 0.45mm
; perimeters extrusion width = 0.45mm
; infill extrusion width = 0.45mm
; solid infill extrusion width = 0.45mm
; top infill extrusion width = 0.40mm
; support material extrusion width = 0.35mm
; first layer extrusion width = 0.42mm

M73 P0 R49
M73 Q0 S50
M201 X1000 Y1000 Z200 E5000 ; sets maximum accelerations, mm/sec^2
M203 X200 Y200 Z12 E120 ; sets maximum feedrates, mm / sec
M204 P1250 R1250 T1250 ; sets acceleration (P, T) and retract acceleration (R), mm/sec^2
M205 X8.00 Y8.00 Z0.40 E4.50 ; sets the jerk limits, mm/sec
M205 S0 T0 ; sets the minimum extruding and travel feed rate, mm/sec
M107
;TYPE:Custom
M862.3 P "MK3S" ; printer model check
M862.1 P0.4 ; nozzle diameter check
M115 U3.11.0 ; tell printer latest fw version
G90 ; use absolute coordinates
M83 ; extruder relative mode
M104 S240 ; set extruder temp
M140 S85 ; set bed temp
M190 S85 ; wait for bed temp
M109 S240 ; wait for extruder temp
G28 W ; home all without mesh bed level
G80 ; mesh bed leveling

G1 Z0.2 F720
G1 Y-3 F1000 ; go outside print area
G92 E0
G1 X60 E9 F1000 ; intro line
G1 X100 E12.5 F1000 ; intro line

G92 E0
M221 S95

; Don't change E values below. Excessive value can damage the printer.
M907 E430 ; set extruder motor current
G21 ; set units to millimeters
G90 ; use absolute coordinates
M83 ; use relative distances for extrusion
M900 K0.08 ; Filament gcode LA 1.5
M900 K45 ; Filament gcode LA 1.0
M107
;LAYER_CHANGE
;Z:0.2
;HEIGHT:0.2
;BEFORE_LAYER_CHANGE
G92 E0.0
;0.2


G1 E-1 F2100
G1 Z.2 F720
;AFTER_LAYER_CHANGE
;0.2
G1 Z.4
G1 X87.772 Y67.682 F10800
G1 Z.2 F720
G1 E1 F2100
M204 S800
;TYPE:Skirt/Brim
;WIDTH:0.42
G1 F1200
G1 X88.818 Y66.805 E.04278
G1 X89.542 Y66.621 E.02344
G1 X140.298 Y62.007 E1.59797
G1 X160.243 Y61.997 E.62535
M73 Q0 S49
G1 X161.55 Y62.389 E.04278
G1 X162.426 Y63.435 E.04278
G1 X162.62 Y64.374 E.03008
G1 X162.62 Y81.797 E.54626
G1 X162.446 Y82.689 E.0285
G1 X140.445 Y137.021 E1.83789
G1 X140.045 Y137.863 E.02924
G1 X139.314 Y138.96 E.04134
G1 X138.332 Y139.985 E.04449
G1 X137.147 Y140.832 E.04568
G1 X135.871 Y141.429 E.04415
G1 X134.498 Y141.786 E.04449
G1 X133.184 Y141.889 E.04134
G1 X131.871 Y141.769 E.04134
G1 X130.383 Y141.348 E.04849
G1 X129.399 Y140.878 E.03418
G1 X128.571 Y140.336 E.03102
G1 X127.721 Y139.595 E.03537
G1 X127.015 Y138.779 E.03383
G1 X89.938 Y87.474 E1.98472
G1 X87.631 Y82.86 E.16175
G1 X87.38 Y81.797 E.03425
G1 X87.38 Y68.989 E.40159
G1 X87.755 Y67.739 E.0409
M204 S1000
; printing object Crank id:0 copy 0
;WIPE_START
G1 F8640
G1 X88.818 Y66.805 E-.32671
G1 X89.542 Y66.621 E-.1726
G1 X91.486 Y66.445 E-.45069
;WIPE_END
G1 E-.05 F2100
G1 Z.4 F720
G1 X97.644 Y71.568 F10800
G1 Z.2 F720
G1 E1 F2100
M204 S800
;TYPE:Support material
G1 F1200
G1 X94.644 Y71.568 E.09406
G1 X94.644 Y79.217 E.23981
G1 X99.986 Y79.217 E.16748
G1 X99.986 Y77.458 E.05514
G1 X107.18 Y77.459 E.22556
G1 X107.18 Y88.718 E.35303
G1 X94.372 Y88.718 E.40159
G1 X94.372 Y86.411 E.07234
G1 X92.064 Y86.411 E.07234
G1 X92.064 Y81.797 E.14467
G1 X89.757 Y81.797 E.07234
G1 X89.757 Y68.989 E.40159
G1 X97.644 Y68.989 E.24729
G1 X97.644 Y71.512 E.07911
M204 S1000
;WIPE_START
G1 F8640
G1 X97.644 Y68.989 E-.58262
G1 X96.053 Y68.989 E-.36738
;WIPE_END
G1 E-.05 F2100
G1 Z.4 F720
G1 X106.565 Y88.548 F10800
G1 Z.2 F720
G1 E1 F2100
M204 S800
G1 F1200
G1 X106.565 Y77.798 E.33707
G1 X106.146 Y77.798 E.01314
G1 X106.146 Y88.379 E.33175
G1 X105.727 Y88.379 E.01314
G1 X105.727 Y77.798 E.33175
G1 X105.308 Y77.798 E.01314
G1 X105.308 Y88.379 E.33175
G1 X104.889 Y88.379 E.01314
G1 X104.889 Y77.798 E.33175
G1 X104.47 Y77.798 E.01314
G1 X104.47 Y88.379 E.33175
G1 X104.051 Y88.379 E.01314
G1 X104.051 Y77.798 E.33175
G1 X103.632 Y77.798 E.01314
G1 X103.632 Y88.379 E.33175
G1 X103.213 Y88.379 E.01314
G1 X103.213 Y77.798 E.33175
G1 X102.794 Y77.798 E.01314
M73 P1 R49
M73 Q1 S49
G1 X102.794 Y88.379 E.33175
G1 X102.375 Y88.379 E.01314
G1 X102.375 Y77.798 E.33175
G1 X101.956 Y77.798 E.01314
G1 X101.956 Y88.379 E.33175
G1 X101.537 Y88.379 E.01314
G1 X101.537 Y77.798 E.33175
G1 X101.118 Y77.798 E.01314
G1 X101.118 Y88.379 E.33175
G1 X100.699 Y88.379 E.01314
G1 X100.699 Y77.798 E.33175
G1 X100.325 Y77.798 E.01173
G1 X100.325 Y79.556 E.05513
G1 X100.28 Y79.556 E.0014
G1 X100.28 Y88.379 E.27662
G1 X99.861 Y88.379 E.01314
G1 X99.861 Y79.556 E.27662
G1 X99.442 Y79.556 E.01314
G1 X99.442 Y88.379 E.27662
G1 X99.023 Y88.379 E.01314
G1 X99.023 Y79.556 E.27662
G1 X98.604 Y79.556 E.01314
G1 X98.604 Y88.379 E.27662
G1 X98.185 Y88.379 E.01314
G1 X98.185 Y79.556 E.27662
G1 X97.766 Y79.556 E.01314
G1 X97.766 Y88.379 E.27662
G1 X97.347 Y88.379 E.01314
G1 X97.347 Y79.556 E.27662
G1 X96.929 Y79.556 E.01314
G1 X96.929 Y88.379 E.27662
G1 X96.51 Y88.379 E.01314
G1 X96.51 Y79.556 E.27662
G1 X96.091 Y79.556 E.01314
G1 X96.091 Y88.379 E.27662
G1 X95.672 Y88.379 E.01314
G1 X95.672 Y79.556 E.27662
G1 X95.253 Y79.556 E.01314
G1 X95.253 Y88.379 E.27662
G1 X94.834 Y88.379 E.01314
G1 X94.834 Y79.387 E.28194
M204 S1000
;WIPE_START
G1 F8640
G1 X94.834 Y83.501 E-.95
;WIPE_END
G1 E-.05 F2100
G1 Z.4 F720
G1 X96.929 Y71.399 F10800
G1 Z.2 F720
G1 E1 F2100
M204 S800
G1 F1200
G1 X96.929 Y69.328 E.06493
G1 X96.51 Y69.328 E.01314
G1 X96.51 Y71.229 E.05961
G1 X96.091 Y71.229 E.01314
G1 X96.091 Y69.328 E.05961
G1 X95.672 Y69.328 E.01314
G1 X95.672 Y71.229 E.05961
G1 X95.253 Y71.229 E.01314
G1 X95.253 Y69.328 E.05961
G1 X94.834 Y69.328 E.01314
G1 X94.834 Y71.399 E.06493
M204 S1000
G1 X94.415 Y86.241 F10800
M204 S800
G1 F1200
G1 X94.415 Y69.328 E.5303
G1 X93.996 Y69.328 E.01314
G1 X93.996 Y86.072 E.52498
G1 X93.577 Y86.072 E.01314
G1 X93.577 Y69.328 E.52498
G1 X93.158 Y69.328 E.01314
G1 X93.158 Y86.072 E.52498
G1 X92.739 Y86.072 E.01314
M73 P1 R48
G1 X92.739 Y69.328 E.52498
G1 X92.32 Y69.328 E.01314
G1 X92.32 Y81.457 E.38031
G1 X91.901 Y81.457 E.01314
G1 X91.901 Y69.328 E.38031
G1 X91.482 Y69.328 E.01314
G1 X91.482 Y81.457 E.38031
G1 X91.063 Y81.457 E.01314
G1 X91.063 Y69.328 E.38031
G1 X90.644 Y69.328 E.01314
G1 X90.644 Y81.457 E.38031
G1 X90.225 Y81.457 E.01314
G1 X90.225 Y69.158 E.38563
M204 S1000
;WIPE_START
G1 F8640
G1 X90.225 Y73.273 E-.95
;WIPE_END
G1 E-.05 F2100
G1 Z.4 F720
G1 X97.863 Y74.013 F10800
G1 Z.2 F720
G1 E1 F2100
M204 S800
;TYPE:Support material interface
;WIDTH:0.35
G1 F1200
G1 X97.965 Y73.904 E.00381
G1 X98.125 Y73.795 E.00494
G1 X98.125 Y71.932 E.04756
G1 X98.632 Y71.932 E.01295
G1 X98.632 Y73.578 E.04204
G1 X99.139 Y73.472 E.01323
G1 X99.139 Y71.932 E.03932
G1 X99.622 Y71.932 E.01234
G1 X99.622 Y73.421 E.03802
G1 X99.291 Y73.454 E.00849
M204 S1000
;WIPE_START
G1 F8640
G1 X99.622 Y73.421 E-.07673
G1 X99.622 Y71.932 E-.34384
G1 X99.139 Y71.932 E-.11157
G1 X99.139 Y73.472 E-.35555
G1 X98.875 Y73.527 E-.0623
;WIPE_END
G1 E-.05 F2100
G1 Z.4 F720
G1 X98.398 Y76.6 F10800
G1 Z.2 F720
G1 E1 F2100
M204 S800
;TYPE:Support material
;WIDTH:0.42
G1 F1200
G1 X98.422 Y76.706 E.0034
G1 X98.56 Y76.979 E.00959
G1 X98.641 Y77.069 E.0038
G1 X98.828 Y77.193 E.00702
G1 X98.431 Y77.054 E.01316
G1 X98.191 Y76.902 E.0089
G1 X98.05 Y76.737 E.00683
G1 X97.995 Y76.558 E.00588
G1 X97.994 Y75.14 E.04446
G1 X98.398 Y75.047 E.01298
G1 X98.398 Y76.544 E.04692
M204 S1000
;WIPE_START
G1 F8640
G1 X98.398 Y75.047 E-.34553
G1 X97.994 Y75.14 E-.09561
G1 X97.995 Y76.558 E-.32741
G1 X98.05 Y76.737 E-.04327
G1 X98.191 Y76.902 E-.05026
G1 X98.431 Y77.054 E-.06555
G1 X98.523 Y77.086 E-.02237
;WIPE_END
G1 E-.05 F2100
G1 Z.4 F720
G1 X99.292 Y78.853 F10800
G1 Z.2 F720
G1 E1 F2100
M204 S800
;TYPE:Support material interface
;WIDTH:0.35
G1 F1200
G1 X99.622 Y78.853 E.00842
G1 X99.622 Y77.671 E.03018
G1 X99.139 Y77.621 E.01241
G1 X99.139 Y78.853 E.03148
G1 X98.632 Y78.853 E.01295
G1 X98.632 Y77.514 E.0342
G1 X98.299 Y77.393 E.00905
G1 X98.125 Y77.298 E.00506
G1 X98.125 Y78.853 E.03972
G1 X97.618 Y78.853 E.01295
G1 X97.618 Y71.932 E.17673
G1 X97.111 Y71.932 E.01295
G1 X97.111 Y78.853 E.17673
G1 X96.604 Y78.853 E.01295
G1 X96.604 Y71.932 E.17673
G1 X96.096 Y71.932 E.01295
G1 X96.096 Y78.853 E.17673
G1 X95.589 Y78.853 E.01295
G1 X95.589 Y71.932 E.17673
G1 X95.082 Y71.932 E.01295
G1 X95.082 Y78.853 E.17673
M204 S1000
;WIPE_START
G1 F8640
G1 X95.082 Y74.739 E-.95
;WIPE_END
G1 E-.05 F2100
G1 Z.4 F720
G1 X145.79 Y73.41 F10800
G1 Z.2 F720
G1 E1 F2100
M204 S800
G1 F1200
G1 X145.79 Y67.318 E.15554
G1 X146.297 Y67.318 E.01295
G1 X146.297 Y73.41 E.15554
G1 X146.804 Y73.409 E.01295
G1 X146.804 Y67.318 E.15553
G1 X147.311 Y67.318 E.01295
G1 X147.311 Y73.409 E.15553
G1 X147.627 Y73.409 E.00806
G1 X147.634 Y67.87 E.14143
G1 X147.819 Y67.686 E.00667
G1 X147.819 Y67.318 E.00939
G1 X148.071 Y67.318 E.00644
G1 X148.071 Y67.623 E.00778
G1 X147.946 Y67.623 E.00319
M204 S1000
G1 X148.4 Y66.954 F10800
M204 S800
;TYPE:Support material
;WIDTH:0.42
G1 F1200
G1 X145.4 Y66.954 E.09406
G1 X145.4 Y73.634 E.20944
G1 X140.513 Y73.634 E.15322
G1 X140.513 Y64.374 E.29032
G1 X148.4 Y64.374 E.24729
G1 X148.4 Y66.898 E.07911
M204 S1000
G1 X148.044 Y66.785 F10800
M204 S800
G1 F1200
G1 X148.044 Y64.714 E.06493
G1 X147.625 Y64.714 E.01314
G1 X147.625 Y66.615 E.05961
G1 X147.206 Y66.615 E.01314
G1 X147.206 Y64.714 E.05961
G1 X146.787 Y64.714 E.01314
M73 P2 R48
M73 Q2 S49
G1 X146.787 Y66.615 E.05961
G1 X146.368 Y66.615 E.01314
G1 X146.368 Y64.714 E.05961
G1 X145.949 Y64.714 E.01314
G1 X145.949 Y66.615 E.05961
G1 X145.53 Y66.615 E.01314
G1 X145.53 Y64.714 E.05961
G1 X145.111 Y64.714 E.01314
G1 X145.111 Y66.615 E.05961
G1 X145.061 Y66.615 E.00157
G1 X145.061 Y73.295 E.20944
G1 X144.692 Y73.295 E.01156
G1 X144.692 Y64.714 E.26904
G1 X144.273 Y64.714 E.01314
G1 X144.273 Y73.295 E.26904
G1 X143.854 Y73.295 E.01314
G1 X143.854 Y64.714 E.26904
G1 X143.435 Y64.714 E.01314
G1 X143.435 Y73.295 E.26904
G1 X143.016 Y73.295 E.01314
G1 X143.016 Y64.714 E.26904
G1 X142.597 Y64.714 E.01314
G1 X142.597 Y73.295 E.26904
G1 X142.178 Y73.295 E.01314
G1 X142.178 Y64.714 E.26904
G1 X141.759 Y64.714 E.01314
G1 X141.759 Y73.295 E.26904
G1 X141.34 Y73.295 E.01314
G1 X141.34 Y64.714 E.26904
G1 X140.921 Y64.714 E.01314
G1 X140.921 Y73.464 E.27436
M204 S1000
;WIPE_START
G1 F8640
G1 X140.921 Y69.35 E-.95
;WIPE_END
G1 E-.05 F2100
G1 Z.4 F720
G1 X148.394 Y70.024 F10800
G1 Z.2 F720
G1 E1 F2100
M204 S800
G1 F1200
G1 X148.391 Y73.632 E.11313
G1 X147.991 Y73.631 E.01255
G1 X147.997 Y68.021 E.1759
G1 X148.032 Y67.986 E.00155
G1 X148.398 Y67.986 E.01147
G1 X148.394 Y69.967 E.06211
M204 S1000
;WIPE_START
G1 F8640
G1 X148.398 Y67.986 E-.45736
G1 X148.032 Y67.986 E-.08444
G1 X147.997 Y68.021 E-.01144
G1 X147.995 Y69.74 E-.39676
;WIPE_END
G1 E-.05 F2100
G1 Z.4 F720
G1 X150.707 Y67.318 F10800
G1 Z.2 F720
G1 E1 F2100
M204 S800
;TYPE:Support material interface
;WIDTH:0.35
G1 F1200
G1 X150.378 Y67.318 E.00842
G1 X150.378 Y67.623 E.00778
G1 X150.861 Y67.623 E.01234
G1 X150.861 Y67.318 E.00778
G1 X151.368 Y67.318 E.01295
G1 X151.368 Y67.623 E.00778
G1 X151.875 Y67.623 E.01295
G1 X151.875 Y67.318 E.00778
G1 X152.382 Y67.318 E.01295
G1 X152.382 Y78.853 E.29454
G1 X152.889 Y78.853 E.01295
G1 X152.889 Y67.318 E.29454
G1 X153.396 Y67.318 E.01295
M73 Q2 S48
G1 X153.396 Y78.853 E.29454
G1 X153.903 Y78.853 E.01295
G1 X153.903 Y67.318 E.29454
G1 X154.411 Y67.318 E.01295
G1 X154.411 Y78.853 E.29454
G1 X154.918 Y78.853 E.01295
G1 X154.918 Y67.318 E.29454
M204 S1000
;WIPE_START
G1 F8640
G1 X154.918 Y71.432 E-.95
;WIPE_END
G1 E-.05 F2100
G1 Z.4 F720
G1 X152.137 Y77.079 F10800
G1 Z.2 F720
G1 E1 F2100
M204 S800
G1 F1200
G1 X152.035 Y77.188 E.00381
G1 X151.875 Y77.298 E.00494
G1 X151.875 Y78.853 E.03972
G1 X151.368 Y78.853 E.01295
G1 X151.368 Y77.514 E.0342
G1 X150.861 Y77.621 E.01323
G1 X150.861 Y78.853 E.03148
G1 X150.378 Y78.853 E.01234
G1 X150.378 Y77.671 E.03018
G1 X150.708 Y77.638 E.00848
M204 S1000
;WIPE_START
G1 F8640
G1 X150.378 Y77.671 E-.07673
G1 X150.378 Y78.853 E-.27294
G1 X150.861 Y78.853 E-.11157
G1 X150.861 Y77.621 E-.28465
G1 X151.368 Y77.514 E-.11964
G1 X151.368 Y77.88 E-.08448
;WIPE_END
G1 E-.05 F2100
G1 Z.4 F720
G1 X160.243 Y81.797 F10800
G1 Z.2 F720
G1 E1 F2100
M204 S800
;TYPE:Support material
;WIDTH:0.42
G1 F1200
G1 X152.356 Y81.797 E.24729
G1 X152.356 Y79.217 E.08089
G1 X155.356 Y79.217 E.09406
G1 X155.356 Y66.954 E.38449
G1 X152.356 Y66.954 E.09406
G1 X152.356 Y64.374 E.08089
G1 X160.243 Y64.374 E.24729
G1 X160.243 Y81.74 E.54449
M204 S1000
G1 X159.775 Y81.627 F10800
M204 S800
G1 F1200
G1 X159.775 Y64.714 E.5303
G1 X159.356 Y64.714 E.01314
G1 X159.356 Y81.457 E.52498
G1 X158.937 Y81.457 E.01314
G1 X158.937 Y64.714 E.52498
G1 X158.518 Y64.714 E.01314
G1 X158.518 Y81.457 E.52498
G1 X158.099 Y81.457 E.01314
G1 X158.099 Y64.714 E.52498
G1 X157.68 Y64.714 E.01314
G1 X157.68 Y81.457 E.52498
G1 X157.261 Y81.457 E.01314
G1 X157.261 Y64.714 E.52498
G1 X156.842 Y64.714 E.01314
G1 X156.842 Y81.457 E.52498
G1 X156.423 Y81.457 E.01314
G1 X156.423 Y64.714 E.52498
G1 X156.004 Y64.714 E.01314
G1 X156.004 Y81.457 E.52498
G1 X155.585 Y81.457 E.01314
G1 X155.585 Y64.714 E.52498
G1 X155.166 Y64.714 E.01314
G1 X155.166 Y66.615 E.05961
G1 X154.747 Y66.615 E.01314
G1 X154.747 Y64.714 E.05961
G1 X154.328 Y64.714 E.01314
G1 X154.328 Y66.615 E.05961
G1 X153.909 Y66.615 E.01314
G1 X153.909 Y64.714 E.05961
G1 X153.49 Y64.714 E.01314
G1 X153.49 Y66.615 E.05961
G1 X153.071 Y66.615 E.01314
G1 X153.071 Y64.544 E.06493
M204 S1000
;WIPE_START
G1 F8640
G1 X153.071 Y66.615 E-.47814
G1 X153.49 Y66.615 E-.09674
G1 X153.49 Y64.99 E-.37511
;WIPE_END
G1 E-.05 F2100
G1 Z.4 F720
G1 X155.166 Y81.627 F10800
G1 Z.2 F720
G1 E1 F2100
M204 S800
G1 F1200
G1 X155.166 Y79.556 E.06493
G1 X154.747 Y79.556 E.01314
G1 X154.747 Y81.457 E.05961
G1 X154.328 Y81.457 E.01314
G1 X154.328 Y79.556 E.05961
G1 X153.909 Y79.556 E.01314
G1 X153.909 Y81.457 E.05961
G1 X153.49 Y81.457 E.01314
G1 X153.49 Y79.556 E.05961
G1 X153.071 Y79.556 E.01314
G1 X153.071 Y81.627 E.06493
M204 S1000
;WIPE_START
G1 F8640
G1 X153.071 Y79.556 E-.47814
G1 X153.49 Y79.556 E-.09674
G1 X153.49 Y81.181 E-.37511
;WIPE_END
G1 E-.05 F2100
G1 Z.4 F720
G1 X149.163 Y74.884 F10800
G1 Z.2 F720
G1 E1 F2100
M204 S800
;TYPE:Perimeter
;WIDTH:0.419999
G1 F1200
G1 X149.331 Y74.847 E.0054
;WIDTH:0.459349
G1 X149.43 Y74.746 E.00487
;WIDTH:0.498699
G1 X149.529 Y74.646 E.00533
;WIDTH:0.538049
G1 X149.628 Y74.546 E.0058
;WIDTH:0.577398
G1 X149.726 Y74.446 E.00626
G1 X149.733 Y74.335 E.00492
;WIDTH:0.570544
G1 X149.737 Y69.169 E.22664
;WIDTH:0.567551
G1 X149.737 Y68.907 E.01143
G1 X150.262 Y68.907 E.02287
G1 X150.262 Y69.169 E.01144
;WIDTH:0.570544
G1 X150.26 Y74.335 E.22664
;WIDTH:0.577398
G1 X150.276 Y74.74 E.01801
;WIDTH:0.538049
G1 X150.296 Y74.989 E.01026
;WIDTH:0.498699
G1 X150.316 Y75.237 E.00945
;WIDTH:0.459349
G1 X150.335 Y75.486 E.00863
;WIDTH:0.419999
G1 X150.335 Y76.156 E.02102
G1 X149.97 Y76.191 E.01153
G1 X100.31 Y76.191 E1.55704
G1 X99.665 Y76.156 E.02026
M73 P3 R48
M73 Q3 S48
G1 X99.665 Y74.936 E.03825
G1 X100.03 Y74.901 E.01152
G1 X149.105 Y74.897 E1.53868
M204 S1000
G1 X149.092 Y74.523 F10800
M204 S800
;TYPE:External perimeter
G1 F1200
G1 X149.172 Y74.505 E.00256
G1 X149.28 Y74.334 E.00634
G1 X149.287 Y68.456 E.18431
G1 X150.713 Y68.456 E.0447
G1 X150.713 Y76.409 E.24936
G1 X150.606 Y76.48 E.004
G1 X149.984 Y76.569 E.01971
G1 X100.31 Y76.569 E1.5575
G1 X99.987 Y76.566 E.01013
G1 X99.393 Y76.48 E.0188
G1 X99.288 Y76.409 E.00399
G1 X99.288 Y74.683 E.05413
G1 X99.393 Y74.612 E.00399
G1 X100.016 Y74.524 E.01971
G1 X149.032 Y74.523 E1.53686
M204 S1000
G1 X149.142 Y74.587 F10800
;WIPE_START
G1 F8640
G1 X149.172 Y74.505 E-.03254
G1 X149.28 Y74.334 E-.04671
G1 X149.285 Y70.563 E-.87075
;WIPE_END
G1 E-.05 F2100
G1 Z.4 F720
G1 X150.184 Y75.239 F10800
G1 Z.2 F720
G1 E1 F2100
M204 S800
;TYPE:Solid infill
;WIDTH:0.422481
G1 F1200
G1 X149.767 Y74.821 E.01862
G1 X149.486 Y75.077 E.01199
