; generated by PrusaSlicer 2.5.0+win64 on 2023-04-16 at 23:23:39 UTC


;
;
; 

; external perimeters extrusion width = 0.24mm
; perimeters extrusion width = 0.25mm
; infill extrusion width = 0.27mm
; solid infill extrusion width = 0.27mm
; top infill extrusion width = 0.25mm
; support material extrusion width = 0.25mm
; first layer extrusion width = 0.23mm

; external perimeters extrusion width = 0.24mm
; perimeters extrusion width = 0.25mm
; infill extrusion width = 0.27mm
; solid infill extrusion width = 0.27mm
; top infill extrusion width = 0.25mm
; support material extrusion width = 0.25mm
; first layer extrusion width = 0.23mm

; external perimeters extrusion width = 0.24mm
; perimeters extrusion width = 0.25mm
; infill extrusion width = 0.27mm
; solid infill extrusion width = 0.27mm
; top infill extrusion width = 0.25mm
; support material extrusion width = 0.25mm
; first layer extrusion width = 0.23mm

; external perimeters extrusion width = 0.24mm
; perimeters extrusion width = 0.25mm
; infill extrusion width = 0.27mm
; solid infill extrusion width = 0.27mm
; top infill extrusion width = 0.25mm
; support material extrusion width = 0.25mm
; first layer extrusion width = 0.23mm

; external perimeters extrusion width = 0.24mm
; perimeters extrusion width = 0.25mm
; infill extrusion width = 0.27mm
; solid infill extrusion width = 0.27mm
; top infill extrusion width = 0.25mm
; support material extrusion width = 0.25mm
; first layer extrusion width = 0.23mm

M73 P0 R163
M73 Q0 S164
M201 X1000 Y1000 Z200 E5000 ; sets maximum accelerations, mm/sec^2
M203 X200 Y200 Z12 E120 ; sets maximum feedrates, mm / sec
M204 P1250 R1250 T1250 ; sets acceleration (P, T) and retract acceleration (R), mm/sec^2
M205 X8.00 Y8.00 Z0.40 E4.50 ; sets the jerk limits, mm/sec
M205 S0 T0 ; sets the minimum extruding and travel feed rate, mm/sec
M107
;TYPE:Custom
M862.3 P "MK3S" ; printer model check
M862.1 P0.25 ; nozzle diameter check
M115 U3.11.0 ; tell printer latest fw version
G90 ; use absolute coordinates
M83 ; extruder relative mode
M104 S215 ; set extruder temp
M140 S60 ; set bed temp
M190 S60 ; wait for bed temp
M109 S215 ; wait for extruder temp
G28 W ; home all without mesh bed level
G80 ; mesh bed leveling
G1 Z0.2 F720
G1 Y-3 F1000 ; go outside print area
G92 E0
G1 X60 E8 F700 ; intro line
G1 X100 E12.5 F700 ; intro line
G92 E0
M221 S95

; Don't change E value below. Excessive value can damage the printer.
M907 E430 ; set extruder motor current
G21 ; set units to millimeters
G90 ; use absolute coordinates
M83 ; use relative distances for extrusion
M900 K0.05 ; Filament gcode LA 1.5
M900 K30 ; Filament gcode LA 1.0
M107
;LAYER_CHANGE
;Z:0.2
;HEIGHT:0.2
;BEFORE_LAYER_CHANGE
G92 E0.0
;0.2


G1 E-.8 F2100
G1 Z.15 F720
G1 Z.2
;AFTER_LAYER_CHANGE
;0.2
G1 Z.35
G1 X44.618 Y27.957 F10800
G1 Z.2 F720
G1 E.8 F2100
M204 S500
;TYPE:Skirt/Brim
;WIDTH:0.23
G1 F1200
G1 X45.836 Y26.739 E.02679
G1 X47.382 Y26.098 E.02604
G1 X104.559 Y26.099 E.88942
G1 X196.291 Y27.813 E1.42721
G1 X197.389 Y28.133 E.01779
G1 X200.667 Y30.133 E.05974
G1 X201.529 Y31.116 E.02034
G1 X201.716 Y32 E.01405
G1 X201.712 Y35.115 E.04846
G1 X198.287 Y100.12 E1.01261
G1 X193.882 Y179.97 E1.24401
G1 X193.423 Y181.195 E.02034
G1 X191.866 Y182.031 E.02749
G1 X189.748 Y182.187 E.03303
G1 X149.348 Y182.187 E.62845
G1 X147.231 Y182.031 E.03303
G1 X82.16 Y170.288 E1.02858
G1 X81.001 Y169.681 E.02034
G1 X80.533 Y168.984 E.01306
G1 X44.149 Y82.617 E1.45786
G1 X43.977 Y81.768 E.01347
M73 P0 R162
G1 X43.977 Y29.503 E.81301
G1 X44.604 Y27.991 E.02546
M204 S1000
; printing object MM_zgornji_nastavek.STL id:0 copy 0
;WIPE_START
G1 F8640
G1 X45.836 Y26.739 E-.40568
G1 X47.253 Y26.152 E-.35432
;WIPE_END
G1 E-.04 F2100
G1 Z.35 F720
G1 X57.023 Y31.96 F10800
G1 Z.2 F720
G1 E.8 F2100
M204 S500
;TYPE:Support material
G1 F1200
G1 X53.553 Y31.96 E.05398
G1 X53.275 Y32.239 E.00612
G1 X53.275 Y40.362 E.12637
G1 X46.164 Y40.362 E.11061
G1 X46.164 Y29.503 E.16892
G1 X47.382 Y29.503 E.01894
G1 X47.382 Y28.285 E.01894
G1 X57.023 Y28.285 E.14997
G1 X57.023 Y31.932 E.05673
M204 S1000
G1 X56.826 Y31.876 F10800
M204 S500
G1 F1200
G1 X56.826 Y28.454 E.05324
G1 X56.618 Y28.454 E.00323
G1 X56.618 Y31.792 E.05193
G1 X56.411 Y31.792 E.00323
G1 X56.411 Y28.454 E.05193
G1 X56.203 Y28.454 E.00323
G1 X56.203 Y31.792 E.05193
G1 X55.995 Y31.792 E.00323
G1 X55.995 Y28.454 E.05193
G1 X55.787 Y28.454 E.00323
G1 X55.787 Y31.792 E.05193
G1 X55.579 Y31.792 E.00323
G1 X55.579 Y28.454 E.05193
G1 X55.371 Y28.454 E.00323
G1 X55.371 Y31.792 E.05193
G1 X55.163 Y31.792 E.00323
G1 X55.163 Y28.454 E.05193
G1 X54.956 Y28.454 E.00323
G1 X54.956 Y31.792 E.05193
G1 X54.748 Y31.792 E.00323
G1 X54.748 Y28.454 E.05193
G1 X54.54 Y28.454 E.00323
G1 X54.54 Y31.792 E.05193
G1 X54.332 Y31.792 E.00323
G1 X54.332 Y28.454 E.05193
G1 X54.124 Y28.454 E.00323
G1 X54.124 Y31.792 E.05193
G1 X53.916 Y31.792 E.00323
G1 X53.916 Y28.454 E.05193
G1 X53.708 Y28.454 E.00323
G1 X53.708 Y31.792 E.05193
G1 X53.5 Y31.792 E.00323
G1 X53.5 Y28.454 E.05193
G1 X53.293 Y28.454 E.00323
G1 X53.293 Y31.983 E.0549
G1 X53.107 Y32.169 E.00409
G1 X53.107 Y40.194 E.12483
G1 X53.085 Y40.194 E.00034
G1 X53.085 Y28.454 E.18262
G1 X52.877 Y28.454 E.00323
M73 Q0 S163
G1 X52.877 Y40.194 E.18262
G1 X52.669 Y40.194 E.00323
G1 X52.669 Y28.454 E.18262
G1 X52.461 Y28.454 E.00323
G1 X52.461 Y40.194 E.18262
G1 X52.253 Y40.194 E.00323
G1 X52.253 Y28.454 E.18262
G1 X52.045 Y28.454 E.00323
G1 X52.045 Y40.194 E.18262
G1 X51.838 Y40.194 E.00323
G1 X51.838 Y28.454 E.18262
G1 X51.63 Y28.454 E.00323
G1 X51.63 Y40.194 E.18262
G1 X51.422 Y40.194 E.00323
G1 X51.422 Y28.454 E.18262
G1 X51.214 Y28.454 E.00323
G1 X51.214 Y40.194 E.18262
G1 X51.006 Y40.194 E.00323
G1 X51.006 Y28.454 E.18262
G1 X50.798 Y28.454 E.00323
G1 X50.798 Y40.194 E.18262
G1 X50.59 Y40.194 E.00323
G1 X50.59 Y28.454 E.18262
G1 X50.382 Y28.454 E.00323
G1 X50.382 Y40.194 E.18262
G1 X50.175 Y40.194 E.00323
G1 X50.175 Y28.454 E.18262
G1 X49.967 Y28.454 E.00323
G1 X49.967 Y40.194 E.18262
G1 X49.759 Y40.194 E.00323
G1 X49.759 Y28.454 E.18262
G1 X49.551 Y28.454 E.00323
G1 X49.551 Y40.194 E.18262
G1 X49.343 Y40.194 E.00323
G1 X49.343 Y28.454 E.18262
G1 X49.135 Y28.454 E.00323
G1 X49.135 Y40.194 E.18262
G1 X48.927 Y40.194 E.00323
G1 X48.927 Y28.454 E.18262
G1 X48.72 Y28.454 E.00323
G1 X48.72 Y40.194 E.18262
G1 X48.512 Y40.194 E.00323
G1 X48.512 Y28.454 E.18262
G1 X48.304 Y28.454 E.00323
G1 X48.304 Y40.194 E.18262
G1 X48.096 Y40.194 E.00323
G1 X48.096 Y28.454 E.18262
G1 X47.888 Y28.454 E.00323
G1 X47.888 Y40.194 E.18262
G1 X47.68 Y40.194 E.00323
G1 X47.68 Y28.454 E.18262
G1 X47.551 Y28.454 E.00202
G1 X47.551 Y29.672 E.01894
G1 X47.472 Y29.672 E.00122
G1 X47.472 Y40.194 E.16368
G1 X47.264 Y40.194 E.00323
G1 X47.264 Y29.672 E.16368
G1 X47.057 Y29.672 E.00323
G1 X47.057 Y40.194 E.16368
G1 X46.849 Y40.194 E.00323
G1 X46.849 Y29.672 E.16368
G1 X46.641 Y29.672 E.00323
G1 X46.641 Y40.194 E.16368
G1 X46.433 Y40.194 E.00323
G1 X46.433 Y29.587 E.16499
M204 S1000
;WIPE_START
G1 F8640
G1 X46.433 Y32.879 E-.76
;WIPE_END
G1 E-.04 F2100
G1 Z.35 F720
G1 X53.275 Y79.032 F10800
G1 Z.2 F720
G1 E.8 F2100
M204 S500
G1 F1200
G1 X53.553 Y79.31 E.00612
G1 X57.023 Y79.31 E.05398
G1 X57.023 Y82.985 E.05717
G1 X47.382 Y82.985 E.14997
G1 X47.382 Y81.768 E.01894
G1 X46.164 Y81.768 E.01894
G1 X46.164 Y70.909 E.16892
G1 X53.275 Y70.909 E.11061
G1 X53.275 Y79.004 E.12593
M204 S1000
G1 X56.826 Y82.901 F10800
M204 S500
G1 F1200
G1 X56.826 Y79.479 E.05324
G1 X56.618 Y79.479 E.00323
G1 X56.618 Y82.817 E.05193
G1 X56.411 Y82.817 E.00323
G1 X56.411 Y79.479 E.05193
G1 X56.203 Y79.479 E.00323
G1 X56.203 Y82.817 E.05193
G1 X55.995 Y82.817 E.00323
G1 X55.995 Y79.479 E.05193
G1 X55.787 Y79.479 E.00323
G1 X55.787 Y82.817 E.05193
G1 X55.579 Y82.817 E.00323
G1 X55.579 Y79.479 E.05193
G1 X55.371 Y79.479 E.00323
G1 X55.371 Y82.817 E.05193
G1 X55.163 Y82.817 E.00323
G1 X55.163 Y79.479 E.05193
G1 X54.956 Y79.479 E.00323
G1 X54.956 Y82.817 E.05193
G1 X54.748 Y82.817 E.00323
G1 X54.748 Y79.479 E.05193
G1 X54.54 Y79.479 E.00323
G1 X54.54 Y82.817 E.05193
G1 X54.332 Y82.817 E.00323
G1 X54.332 Y79.479 E.05193
G1 X54.124 Y79.479 E.00323
G1 X54.124 Y82.817 E.05193
G1 X53.916 Y82.817 E.00323
G1 X53.916 Y79.479 E.05193
G1 X53.708 Y79.479 E.00323
G1 X53.708 Y82.817 E.05193
G1 X53.5 Y82.817 E.00323
G1 X53.5 Y79.479 E.05193
G1 X53.293 Y79.288 E.00439
G1 X53.293 Y82.817 E.0549
G1 X53.085 Y82.817 E.00323
G1 X53.085 Y71.077 E.18262
G1 X52.877 Y71.077 E.00323
G1 X52.877 Y82.817 E.18262
G1 X52.669 Y82.817 E.00323
G1 X52.669 Y71.077 E.18262
G1 X52.461 Y71.077 E.00323
G1 X52.461 Y82.817 E.18262
G1 X52.253 Y82.817 E.00323
G1 X52.253 Y71.077 E.18262
G1 X52.045 Y71.077 E.00323
G1 X52.045 Y82.817 E.18262
G1 X51.838 Y82.817 E.00323
G1 X51.838 Y71.077 E.18262
G1 X51.63 Y71.077 E.00323
G1 X51.63 Y82.817 E.18262
G1 X51.422 Y82.817 E.00323
G1 X51.422 Y71.077 E.18262
G1 X51.214 Y71.077 E.00323
G1 X51.214 Y82.817 E.18262
G1 X51.006 Y82.817 E.00323
G1 X51.006 Y71.077 E.18262
G1 X50.798 Y71.077 E.00323
G1 X50.798 Y82.817 E.18262
G1 X50.59 Y82.817 E.00323
G1 X50.59 Y71.077 E.18262
G1 X50.382 Y71.077 E.00323
G1 X50.382 Y82.817 E.18262
G1 X50.175 Y82.817 E.00323
G1 X50.175 Y71.077 E.18262
G1 X49.967 Y71.077 E.00323
G1 X49.967 Y82.817 E.18262
G1 X49.759 Y82.817 E.00323
G1 X49.759 Y71.077 E.18262
G1 X49.551 Y71.077 E.00323
G1 X49.551 Y82.817 E.18262
G1 X49.343 Y82.817 E.00323
G1 X49.343 Y71.077 E.18262
G1 X49.135 Y71.077 E.00323
G1 X49.135 Y82.817 E.18262
G1 X48.927 Y82.817 E.00323
G1 X48.927 Y71.077 E.18262
G1 X48.72 Y71.077 E.00323
G1 X48.72 Y82.817 E.18262
G1 X48.512 Y82.817 E.00323
G1 X48.512 Y71.077 E.18262
G1 X48.304 Y71.077 E.00323
G1 X48.304 Y82.817 E.18262
G1 X48.096 Y82.817 E.00323
G1 X48.096 Y71.077 E.18262
G1 X47.888 Y71.077 E.00323
G1 X47.888 Y82.817 E.18262
G1 X47.68 Y82.817 E.00323
G1 X47.68 Y71.077 E.18262
G1 X47.472 Y71.077 E.00323
G1 X47.472 Y81.599 E.16368
G1 X47.264 Y81.599 E.00323
G1 X47.264 Y71.077 E.16368
G1 X47.057 Y71.077 E.00323
G1 X47.057 Y81.599 E.16368
G1 X46.849 Y81.599 E.00323
G1 X46.849 Y71.077 E.16368
G1 X46.641 Y71.077 E.00323
G1 X46.641 Y81.599 E.16368
G1 X46.433 Y81.599 E.00323
G1 X46.433 Y70.993 E.16499
M204 S1000
;WIPE_START
G1 F8640
M73 P0 R161
G1 X46.433 Y74.284 E-.76
;WIPE_END
G1 E-.04 F2100
G1 Z.35 F720
G1 X105.736 Y81.768 F10800
G1 Z.2 F720
G1 E.8 F2100
M204 S500
G1 F1200
G1 X104.518 Y81.768 E.01894
G1 X104.518 Y82.985 E.01894
G1 X94.877 Y82.985 E.14997
G1 X94.877 Y79.31 E.05717
G1 X98.347 Y79.31 E.05398
G1 X98.625 Y79.032 E.00612
G1 X98.625 Y70.909 E.12637
G1 X105.736 Y70.909 E.11061
G1 X105.736 Y81.739 E.16848
M204 S1000
G1 X105.467 Y81.683 F10800
M204 S500
G1 F1200
G1 X105.467 Y71.077 E.16499
G1 X105.259 Y71.077 E.00323
G1 X105.259 Y81.599 E.16368
G1 X105.051 Y81.599 E.00323
G1 X105.051 Y71.077 E.16368
G1 X104.843 Y71.077 E.00323
G1 X104.843 Y81.599 E.16368
G1 X104.636 Y81.599 E.00323
G1 X104.636 Y71.077 E.16368
G1 X104.428 Y71.077 E.00323
M73 P1 R161
G1 X104.428 Y81.599 E.16368
G1 X104.349 Y81.599 E.00122
M73 Q1 S163
G1 X104.349 Y82.817 E.01894
G1 X104.22 Y82.817 E.00202
G1 X104.22 Y71.077 E.18262
G1 X104.012 Y71.077 E.00323
G1 X104.012 Y82.817 E.18262
G1 X103.804 Y82.817 E.00323
G1 X103.804 Y71.077 E.18262
G1 X103.596 Y71.077 E.00323
G1 X103.596 Y82.817 E.18262
G1 X103.388 Y82.817 E.00323
G1 X103.388 Y71.077 E.18262
G1 X103.18 Y71.077 E.00323
G1 X103.18 Y82.817 E.18262
G1 X102.973 Y82.817 E.00323
G1 X102.973 Y71.077 E.18262
G1 X102.765 Y71.077 E.00323
G1 X102.765 Y82.817 E.18262
G1 X102.557 Y82.817 E.00323
G1 X102.557 Y71.077 E.18262
G1 X102.349 Y71.077 E.00323
G1 X102.349 Y82.817 E.18262
G1 X102.141 Y82.817 E.00323
G1 X102.141 Y71.077 E.18262
G1 X101.933 Y71.077 E.00323
M73 Q1 S162
G1 X101.933 Y82.817 E.18262
G1 X101.725 Y82.817 E.00323
G1 X101.725 Y71.077 E.18262
G1 X101.518 Y71.077 E.00323
G1 X101.518 Y82.817 E.18262
G1 X101.31 Y82.817 E.00323
G1 X101.31 Y71.077 E.18262
G1 X101.102 Y71.077 E.00323
G1 X101.102 Y82.817 E.18262
G1 X100.894 Y82.817 E.00323
G1 X100.894 Y71.077 E.18262
G1 X100.686 Y71.077 E.00323
G1 X100.686 Y82.817 E.18262
G1 X100.478 Y82.817 E.00323
G1 X100.478 Y71.077 E.18262
G1 X100.27 Y71.077 E.00323
G1 X100.27 Y82.817 E.18262
G1 X100.062 Y82.817 E.00323
G1 X100.062 Y71.077 E.18262
G1 X99.855 Y71.077 E.00323
G1 X99.855 Y82.817 E.18262
G1 X99.647 Y82.817 E.00323
G1 X99.647 Y71.077 E.18262
G1 X99.439 Y71.077 E.00323
G1 X99.439 Y82.817 E.18262
G1 X99.231 Y82.817 E.00323
G1 X99.231 Y71.077 E.18262
G1 X99.023 Y71.077 E.00323
G1 X99.023 Y82.817 E.18262
G1 X98.815 Y82.817 E.00323
G1 X98.815 Y71.077 E.18262
G1 X98.793 Y71.077 E.00034
G1 X98.793 Y79.102 E.12483
G1 X98.607 Y79.288 E.00409
G1 X98.607 Y82.817 E.0549
G1 X98.4 Y82.817 E.00323
G1 X98.4 Y79.479 E.05193
G1 X98.192 Y79.479 E.00323
G1 X98.192 Y82.817 E.05193
G1 X97.984 Y82.817 E.00323
G1 X97.984 Y79.479 E.05193
G1 X97.776 Y79.479 E.00323
G1 X97.776 Y82.817 E.05193
G1 X97.568 Y82.817 E.00323
G1 X97.568 Y79.479 E.05193
G1 X97.36 Y79.479 E.00323
G1 X97.36 Y82.817 E.05193
G1 X97.152 Y82.817 E.00323
G1 X97.152 Y79.479 E.05193
G1 X96.944 Y79.479 E.00323
G1 X96.944 Y82.817 E.05193
G1 X96.737 Y82.817 E.00323
G1 X96.737 Y79.479 E.05193
G1 X96.529 Y79.479 E.00323
G1 X96.529 Y82.817 E.05193
G1 X96.321 Y82.817 E.00323
G1 X96.321 Y79.479 E.05193
G1 X96.113 Y79.479 E.00323
G1 X96.113 Y82.817 E.05193
G1 X95.905 Y82.817 E.00323
G1 X95.905 Y79.479 E.05193
G1 X95.697 Y79.479 E.00323
G1 X95.697 Y82.817 E.05193
G1 X95.489 Y82.817 E.00323
G1 X95.489 Y79.479 E.05193
G1 X95.282 Y79.479 E.00323
G1 X95.282 Y82.817 E.05193
G1 X95.074 Y82.817 E.00323
G1 X95.074 Y79.395 E.05324
M204 S1000
;WIPE_START
G1 F8640
G1 X95.074 Y82.686 E-.76
;WIPE_END
G1 E-.04 F2100
G1 Z.35 F720
G1 X104.518 Y29.503 F10800
G1 Z.2 F720
G1 E.8 F2100
M204 S500
G1 F1200
G1 X105.736 Y29.503 E.01894
G1 X105.736 Y40.362 E.16892
G1 X98.625 Y40.362 E.11061
G1 X98.625 Y32.239 E.12637
G1 X98.347 Y31.96 E.00612
G1 X94.877 Y31.96 E.05398
G1 X94.877 Y28.285 E.05717
G1 X104.518 Y28.285 E.14997
G1 X104.518 Y29.475 E.01851
M204 S1000
G1 X105.467 Y40.278 F10800
M204 S500
G1 F1200
G1 X105.467 Y29.672 E.16499
G1 X105.259 Y29.672 E.00323
G1 X105.259 Y40.194 E.16368
G1 X105.051 Y40.194 E.00323
G1 X105.051 Y29.672 E.16368
G1 X104.843 Y29.672 E.00323
G1 X104.843 Y40.194 E.16368
G1 X104.636 Y40.194 E.00323
G1 X104.636 Y29.672 E.16368
G1 X104.428 Y29.672 E.00323
G1 X104.428 Y40.194 E.16368
G1 X104.22 Y40.194 E.00323
G1 X104.22 Y28.454 E.18262
G1 X104.012 Y28.454 E.00323
G1 X104.012 Y40.194 E.18262
G1 X103.804 Y40.194 E.00323
G1 X103.804 Y28.454 E.18262
G1 X103.596 Y28.454 E.00323
G1 X103.596 Y40.194 E.18262
G1 X103.388 Y40.194 E.00323
G1 X103.388 Y28.454 E.18262
G1 X103.18 Y28.454 E.00323
G1 X103.18 Y40.194 E.18262
G1 X102.973 Y40.194 E.00323
G1 X102.973 Y28.454 E.18262
G1 X102.765 Y28.454 E.00323
G1 X102.765 Y40.194 E.18262
G1 X102.557 Y40.194 E.00323
G1 X102.557 Y28.454 E.18262
G1 X102.349 Y28.454 E.00323
G1 X102.349 Y40.194 E.18262
G1 X102.141 Y40.194 E.00323
G1 X102.141 Y28.454 E.18262
G1 X101.933 Y28.454 E.00323
G1 X101.933 Y40.194 E.18262
G1 X101.725 Y40.194 E.00323
G1 X101.725 Y28.454 E.18262
G1 X101.518 Y28.454 E.00323
G1 X101.518 Y40.194 E.18262
G1 X101.31 Y40.194 E.00323
G1 X101.31 Y28.454 E.18262
G1 X101.102 Y28.454 E.00323
G1 X101.102 Y40.194 E.18262
G1 X100.894 Y40.194 E.00323
G1 X100.894 Y28.454 E.18262
G1 X100.686 Y28.454 E.00323
G1 X100.686 Y40.194 E.18262
G1 X100.478 Y40.194 E.00323
G1 X100.478 Y28.454 E.18262
G1 X100.27 Y28.454 E.00323
G1 X100.27 Y40.194 E.18262
G1 X100.062 Y40.194 E.00323
G1 X100.062 Y28.454 E.18262
G1 X99.855 Y28.454 E.00323
G1 X99.855 Y40.194 E.18262
G1 X99.647 Y40.194 E.00323
G1 X99.647 Y28.454 E.18262
G1 X99.439 Y28.454 E.00323
G1 X99.439 Y40.194 E.18262
G1 X99.231 Y40.194 E.00323
G1 X99.231 Y28.454 E.18262
G1 X99.023 Y28.454 E.00323
G1 X99.023 Y40.194 E.18262
G1 X98.815 Y40.194 E.00323
G1 X98.815 Y28.454 E.18262
G1 X98.607 Y28.454 E.00323
G1 X98.607 Y31.983 E.0549
G1 X98.4 Y31.792 E.00439
G1 X98.4 Y28.454 E.05193
G1 X98.192 Y28.454 E.00323
G1 X98.192 Y31.792 E.05193
G1 X97.984 Y31.792 E.00323
G1 X97.984 Y28.454 E.05193
